**kern	**dynam
*I"Cello	*
*clefF4	*
*k[b-]	*
*F:	*
*M4/4	*
*met(c)	*
=1	=1
(4C	mf
4D	.
4E	.
4F)	.
=2	=2
(2.C	.
8DL	.
8CJ	.
=3	=3
8BB-L	.
8C)	.
8AA	.
8GGJ	.
(4FF	.
4D	.
=4	=4
1C)	.
=5	=5
(4D	.
4E	.
4F	.
4G)	.
=6	=6
!LO:TX:b:i:t=cresc.	!
(2.F	.
8EL	.
8DJ)	.
=7	=7
!!linebreak:original
(8CL	.
8D)	.
8E'	.
8F'J	.
(4G'	.
4A')	.
=8	=8
1G	.
=9	=9
8GL	p
8G	.
8G	.
8GJ	.
2G	.
=10	=10
2G	.
2G	.
=11	=11
2G	.
2G	.
=12	=12
2G	.
2G	.
=13	=13
2G	.
!LO:TX:b:i:t=cresc.	!
2G	.
=14	=14
2G	.
2G	.
=15	=15
2G	.
2G	.
=16	=16
2G	.
2G	.
=17	=17
2C 2G	.
2C 2G	.
=18	=18
2CC 2C	.
2CC 2C	f
=19	=19
!!linebreak:original
2.FF	.
(4AA	ff
=20	=20
8BB-')	.
8r	.
8D'	.
8r	.
2C	.
=21	=21
1r	.
=22	=22
8BB-'	p
8r	.
8D'	.
8r	.
(2D	.
=23	=23
2E	.
2C)	.
=24	=24
8C#X	.
8r	.
8E	.
8r	.
(2F	.
=25	=25
2A-X	.
2F)	.
=26	=26
8G	.
8r	.
8B-	.
8r	.
!LO:TX:b:i:t=cresc.	!
(2An	.
=27	=27
2c	.
2Bn)	.
=28	=28
2B-	sf
[2G	>
=29	=29
!!linebreak:original
1G]	.
=30	=30
[1FF	p
=31	=31
1FF_	.
=32	=32
1FF_	.
=33	=33
1FF]	.
=34	=34
(2.A	.
!LO:TX:b:i:t=dol.	!
8B-L	.
8AJ	.
=35	=35
8GL	.
8A	.
8F	.
8CJ	.
8FL	.
8C	.
8AA	.
8CJ)	.
=36	=36
(8FL	.
8G	.
8A	.
8B-J	.
8AL	.
8B-	.
8G	.
8AJ	.
=37	=37
8GL	.
8B-)	.
8G'	.
8G'J	.
(8GL	.
8A)	.
8E'	.
8E'J	.
=38	=38
(4F	.
4G	.
4A	.
4B-)	sf
=39	=39
!!linebreak:original
1G	p
=40	=40
(4A	.
4Bn	.
4c	.
4d)	sf
=41	=41
1Bn	p
=42	=42
!LO:TX:b:i:t=cresc.	!
(4c	.
4d	.
4e	.
4f)	.
=43	=43
(4d	.
4e	.
4f	.
[4g	.
=44	=44
4g])	p
4r	.
4r	.
[4F	.
=45	=45
!LO:TX:b:i:t=cresc.	!
(4F]	.
4E	.
4D	.
[4d)	.
=46	=46
2d]	.
12cL	.
12Bn	.
12AJ	.
12GL	.
12F#X	.
12EJ	.
=47	=47
12DL	.
12C	f
12BBnJ	.
12AAL	.
12GG	.
12GG-XJ	.
12EEL	.
12DD	.
12DD-XJ	.
12DDnL	.
12D	.
12DJ	.
=48	=48
!!linebreak:original
2GG	.
(12AAL	ff
12BBn	.
12CJ	.
12DL	.
12E	.
12F#XJ)	.
=49	=49
2G	sf
(12AL	.
12G	.
12F#XJ	.
12BnL	.
12A	.
12GJ)	.
=50	=50
2c	.
(12BnL	sf
12A	.
12GJ	.
12F#XL	.
12E	.
12DJ)	.
=51	=51
8C	.
8r	.
8BBn	.
8r	.
8AA	.
8r	.
8D	.
8r	.
=52	=52
4GG	.
4r	.
2r	.
=53	=53
1c	sf
=54	=54
1Bn	p
=55	=55
1B-	sf
=56	=56
1A	p
=57	=57
1A-X	p
=58	=58
1G	.
=59	=59
!!linebreak:original
(2.GG	>
8AAL	.
8BBnJ)	]
=60	=60
[1C	p
=61	=61
2C_	.
(8CL]	.
8BBn	.
8AA	.
8GGJ	.
=62	=62
4FF	.
4EE	.
4DD)	.
4GG	.
=63	=63
(4CC	.
4F	<
4G	.
4Bn)	>
=64	=64
([1c	]
=65	=65
!LO:TX:b:i:t=cresc.	!
2.c]	.
8dL	.
8eJ)	.
=66	=66
(4f	.
4e	.
4d	.
4g)	.
=67	=67
4c	.
4r	.
4r	.
4r	.
=68	=68
2r	.
4r	.
(4d	.
=69	=69
!!linebreak:original
4c	sf
4d	.
4e	p
4d)	.
=70	=70
(4c	sf
4d	p
4e	.
4d)	.
=71	=71
!LO:TX:b:i:t=cresc.	!
(2c	.
2d	.
=72	=72
2e	.
[2f)	.
=73	=73
4f]	p
4r	.
2r	.
=74	=74
4e	.
4r	.
2r	.
=75	=75
4F	.
4r	.
2r	.
=76	=76
4E	.
4r	.
2r	.
=77	=77
[1AA [1F#X	.
=78	=78
1AA_ 1F#_	.
=79	=79
!LO:TX:b:i:t=cresc.	!
1AA_ 1F#_	.
=80	=80
1AA] 1F#]	.
=81	=81
[1GGn [1Fn	.
=82	=82
1GG] 1F]	.
=83	=83
!!linebreak:original
(12GGL	.
12FF	.
12EEJ	.
12DDL	.
12EE	.
12CCJ)	.
12EE'L	.
12GG'	.
12C'J	.
12E'L	.
12G'	.
12c'J	.
=84	=84
12C'L	.
12E'	.
12G'J	.
12EL	.
12C	.
12GGJ	.
12EEL	.
12CC	.
12CJ	.
12CL	.
12C	.
12CJ	.
=85	=85
2r	.
2A	p
=86	=86
2r	.
2GG	.
=87	=87
2r	.
2A	.
=88	=88
2r	.
2GG	.
=89	=89
!	!LO:DY:a
2r	f
2A	f
=90	=90
2D	.
2AA-X	.
=91	=91
[1GG	.
=92	=92
!LO:TX:a:i:t=dol.	!
1GG]	p
=93	=93
!!linebreak:original
[1CC [1GG	.
=94	=94
1CC_ 1GG_	.
=95	=95
1CC_ 1GG_	.
=96	=96
!LO:TX:a:i:t=cresc.	!
1CC_ 1GG_	.
=97	=97
(8CCL] 8GG]	.
8AA)	p
8GG'	.
8AA'J	.
(8BBnL	.
8C)	.
8BB'	.
8C'J	.
=98	=98
(1BB-X	.
=99	=99
1AA	.
=100	=100
1BB-X	.
=101	=101
(2.AA)	.
!LO:TX:b:i:t=cresc.	!
4BB-)	.
=102	=102
[2AA)	.
(8AAL]	.
8BB-)	.
8AA'	.
8BB-'J	.
=103	=103
(4C	f
4D	mf
4E	.
4F)	.
=104	=104
(2.C	.
8DL	.
8CJ	.
=105	=105
8BB-L	.
8C)	.
8AA'	.
8GG'J	.
(4FF	.
4D)	.
=106	=106
!!linebreak:original
1C)	.
=107	=107
!LO:TX:b:i:t=cresc.	!
(8CL	.
8D)	.
8C'	.
8D'J	.
(8EL	.
8F)	.
8E'	.
8F'J	.
=108	=108
[1G-X	f
=109	=109
1G-_	.
=110	=110
(1G-X]	sf
=111	=111
1F)	>
=112	=112
4BB-	p
4r	.
2r	.
=113	=113
1r	.
=114	=114
12BB-L	.
12D	.
12FJ	.
12B-L	.
12d	.
12B-J	.
12FL	.
12B-	.
12FJ	.
12DL	.
12F	.
12DJ	.
=115	=115
4BB-	.
4r	.
2r	.
=116	=116
1r	.
=117	=117
1r	.
=118	=118
!!linebreak:original
12AAL	f
12C	.
12F#XJ	.
12AL	.
12c	.
12AJ	.
12F#L	.
12A	.
12F#J	.
12CL	.
12F#	.
12CJ	.
=119	=119
4AA	p
4r	.
2r	.
=120	=120
12GGL	.
12BB-	p
12DJ	.
12GL	.
12B-	.
12GJ	.
12DL	.
12G	.
12DJ	.
12BB-L	.
12D	.
12BB-J	.
=121	=121
4GG	.
4r	.
2r	.
=122	=122
(4G	.
!LO:TX:b:i:t=cresc.	!
4A	.
4B-	.
4c)	.
=123	=123
2.B-	.
8c'L	.
8B-'J	.
=124	=124
8AL	.
8B-	f
8G	.
8FJ	.
4E	.
8e'L	.
8d'J	.
=125	=125
!!linebreak:original
(8c#XL	.
8d)	.
8B-'	.
8A'J	.
4G	.
8EE'L	.
8FF'J	.
=126	=126
4GG	.
4r	f
2r	.
=127	=127
1r	.
=128	=128
8c#XL	fp
8e	.
8B-'	.
8A'J	.
(8GL	.
8B-)	.
8E'	.
8D'J	.
=129	=129
(8C#XL	.
8E)	.
8BB-'	.
8AA'J	.
(8GGL	.
8BB-)	.
8EE'	.
8AA'J	.
=130	=130
4FF	.
4r	f
2r	.
=131	=131
1r	.
=132	=132
!!linebreak:original
(8dL	fp
8f)	.
8A'	.
8G'J	.
(8FL	.
8A)	.
8D'	.
8C#X'J	.
=133	=133
(8CL	.
8E-X)	.
8AA	.
8GGJ	.
(8FF#XL	.
8AA)	.
8EE-X'	.
8DD'J	.
=134	=134
4CC	.
!	!LO:DY:a
4r	f
2r	.
=135	=135
1r	.
=136	=136
(8cL	fp
8e-X)	.
8A'	.
8G'J	.
(8F#XL	.
8A)	.
8E-X'	.
8D'J	.
=137	=137
(8CL	.
8E-X)	.
8AA'	.
8GG'J	.
(8FF#XL	.
8AA)	.
8CC'	.
8C'J	.
=138	=138
4BB-	f
4r	.
2r	.
=139	=139
!!linebreak:original
4r	.
8D'L	.
8C'J	p
8BB-'	.
8r	.
!LO:TX:b:i:t=cresc.	!
8e-XL	.
8dJ	.
=140	=140
(8e-XL	.
8g)	.
8B-'	.
8A-X'J	.
(8GL	.
8B-)	.
8E-X'	.
8D'J	.
=141	=141
(8E-XL	.
8G)	.
8BB-'	.
8AA-X'J	.
(8GGL	.
8BB-)	.
8EE-X'	.
8DD'J	.
=142	=142
(8EE-XL	.
8GG)	.
8BB-'	.
8AA-X'J	.
8GG'L	.
8BB-'	.
8E-X'	.
8G'J	.
=143	=143
8B-L	.
8e-X	.
8B-	.
8GJ	.
8E-XL	.
8BB-	.
8GG	.
8GGJ	.
=144	=144
1r	.
=145	=145
2r	.
2GG#X'	.
=146	=146
!!linebreak:original
1r	p
=147	=147
2r	.
2GG#X	.
=148	=148
1r	.
=149	=149
2r	.
2GG-X	.
=150	=150
2r	.
2F'	f
=151	=151
2BB-'	.
2FF'	.
=152	=152
[1EE	.
=153	=153
1EE_	.
=154	=154
1EE_	.
=155	=155
!	!LO:DY:a
1EE_	ff
=156	=156
1EE_	.
=157	=157
1EE]	.
=158	=158
[1FF	.
=159	=159
1FF_	.
=160	=160
1FF_	.
=161	=161
1FF]	.
=162	=162
[1GG-X	.
=163	=163
1GG-]	.
=164	=164
[1AA-X	.
=165	=165
!!linebreak:original
1AA-]	.
=166	=166
1BB-	.
=167	=167
[1C	.
=168	=168
1C]	.
=169	=169
(4C	.
!	!LO:DY:a
4D-X	p
4E-X	.
4F)	.
=170	=170
1D-X	.
=171	=171
(4C	.
!LO:TX:b:i:t=cresc.	!
4D-X	.
4E-X	.
4F)	.
=172	=172
(2.D-X	.
4A-X	.
=173	=173
4F	.
4G-X	.
4A-X	.
4B-)	.
=174	=174
(2.A-X	f
8G-XL	.
8FJ)	.
=175	=175
(4E-X	.
2A-X	.
4G-X)	.
=176	=176
1F	p
=177	=177
1G-X	.
=178	=178
!!linebreak:original
[1A-X	sf
=179	=179
1A-]	>
=180	=180
1d-X	]
=181	=181
(4A-X	.
4G-X	.
4F	.
8E-XL	.
8A-J)	.
=182	=182
2.A-X	.
([4AA-X	.
=183	=183
4AA-]	.
4GG-X	.
4FF	.
8EE-XL)	.
8AA-XJ	.
=184	=184
4BB-'	.
4r	f
2r	.
=185	=185
1r	.
=186	=186
1r	.
=187	=187
1r	.
=188	=188
1r	.
=189	=189
1r	.
=190	=190
1r	.
=191	=191
1r	.
=192	=192
1r	.
=193	=193
1r	.
=194	=194
1r	.
=195	=195
1r	.
=196	=196
1r	.
=197	=197
1r	.
=198	=198
2r	.
[2BB-	.
=199	=199
2BB-]	pp
2AA	.
=200	=200
4BB-'	.
4FF'	.
[2D-X	.
=201	=201
2D-]	.
!LO:TX:b:i:t=cresc.	!
[2C	.
=202	=202
!!linebreak:original
(4C]	.
8BB-L	.
8AA-XJ	.
4GG	.
4C)	.
=203	=203
(8FFL	f
8GG)	.
8FF'	.
8GG'J	.
(8AA-XL	.
8BB-)	.
8AA-'	.
8BB-'J	.
=204	=204
(8GGL	.
8AA-X)	.
8GG'	.
8AA-'J	.
(8BB-L	.
8C)	.
8BB-'	.
8C'J	.
=205	=205
(8AA-XL	.
8BB-)	.
8AA-'	.
8BB-'J	.
(8CL	.
8D-X)	.
8C'	.
8D-'J	.
=206	=206
(8BB-L	.
8C)	.
8BB-'	.
8C'J	.
(8D-XL	.
8E-X)	.
8D-'	.
8E-'J	.
=207	=207
(8CL	.
8D-X)	.
8C'	.
8D-'J	.
(8E-XL	.
8F)	.
8E-'	.
8F'J	.
=208	=208
!!linebreak:original
(8DL	.
8E-X)	.
8D'	.
8E-'J	.
(8FL	.
8G)	.
8F'	.
8G'J	.
=209	=209
(8EL	.
8F)	.
8E'	.
8F'J	.
(8GL	.
8A-X)	.
8G'	.
8A-'J	.
=210	=210
[1F	.
=211	=211
1F_	sf
=212	=212
!LO:TX:b:i:t=dim.	!
1F_	.
=213	=213
1F_	.
=214	=214
4F]	.
4r	.
2r	.
=215	=215
4r	.
2F	.
[4D	.
=216	=216
4D]	.
2BBn	.
[4AA-X	.
=217	=217
4AA-]	.
2GG	.
4GG	.
=218	=218
!!linebreak:original
[1GG	.
=219	=219
1GG_	p
=220	=220
1GG_	.
=221	=221
1GG]	.
=222	=222
4C	.
4r	.
2r	.
=223	=223
4c	.
4r	.
2r	.
=224	=224
(4G	.
4A	.
4B-	.
4c	.
=225	=225
2.B-	.
4G)	.
=226	=226
(4D	.
4E	.
4F#X	.
4G	.
=227	=227
2.Fn	.
4D)	.
=228	=228
1r	.
=229	=229
4r	.
(12EL	.
12D	.
12C#XJ	.
12BBnL	.
12C#	.
12AAJ)	.
[4E	.
=230	=230
!!linebreak:original
(4E]	.
4F#X	.
4G#X	.
4A	.
=231	=231
2.Gn	.
4E)	.
=232	=232
1r	.
=233	=233
4r	.
(12GGL	.
12FF	.
12EEJ	.
12DDL	.
12EE	.
12CCJ)	.
[4C	.
=234	=234
4C]	.
4r	.
2r	.
=235	=235
(12GGL	.
12FF	.
12EEJ	.
12DDL	.
12EE	.
12CCJ)	.
12CL	.
12C	.
12CJ	.
12CL	.
12C	.
12CJ	.
=236	=236
[1C	.
=237	=237
!LO:TX:a:i:t=sempre	!LO:DY:a
1C_	p
=238	=238
1C_	.
=239	=239
!!linebreak:original
2C]	.
4c	.
4c	.
=240	=240
4c	.
4r	.
2r	.
=241	=241
1r	.
=242	=242
2.A	f
(4A	.
=243	=243
8B-')	.
8r	.
8d'	.
8r	.
2c	.
=244	=244
1r	.
=245	=245
8B-	p
8r	.
8d	.
8r	.
(2d	.
=246	=246
2c#X	.
2e)	.
=247	=247
8d#X	.
8r	.
8f#X	.
8r	.
(2fn	.
=248	=248
8e)	.
8r	.
8g	.
8r	.
[2f#X	.
=249	=249
!!linebreak:original
8f#]	.
8r	.
*clefG2	*
8aa	.
8r	.
8gg#X	.
8r	.
8bb-	.
8r	.
=250	=250
[1gg#X	f
=251	=251
1gg#]	.
=252	=252
1aa	.
*clefF4	*
=253	=253
4CC	ff
8DD'L	.
8EE'J	.
(8FFL	.
8GG)	.
8AA'	.
8BB-'J	.
=254	=254
(4C	.
4D	mf
4E	.
4F)	.
=255	=255
(2.C	.
8DL	.
8CJ	.
=256	=256
8BB-L	.
8C)	.
8AA'	.
8GG'J	.
(4FF	.
4D	.
=257	=257
1C)	.
=258	=258
!!linebreak:original
(4D	.
4E	.
4F	.
4G)	.
=259	=259
!LO:TX:b:i:t=cresc.	!
(2.F	.
8EL	.
8DJ)	.
=260	=260
(8CL	.
8D)	.
8E'	.
8F'J	.
(4G'	.
4A')	.
=261	=261
1G	.
=262	=262
8GL	p
8G	.
8G	.
8GJ	.
2G	.
=263	=263
2G	.
2G	.
=264	=264
2G	.
2G	.
=265	=265
2G	.
2G	.
=266	=266
2G	.
!LO:TX:b:i:t=cresc.	!
2G	.
=267	=267
2G	.
2G	.
=268	=268
!!linebreak:original
2G	.
2G	.
=269	=269
2G-X	.
2G-	.
=270	=270
2G-X	.
2G-	.
=271	=271
2G-X	.
2G-	.
=272	=272
2G-X	f
2G-	.
=273	=273
2G-X	f
2G-	.
=274	=274
2G-X	ff
2G-	.
=275	=275
2G-X	.
2G-	.
=276	=276
2G-X	.
4G-	.
4r	.
=277	=277
2r	.
!LO:TX:a:i:t=poco rit.	!
4r	.
!LO:TX:b:i:t=dim.	!
8F'L	.
8E-X'J	.
=278	=278
!!linebreak:original
(8D-XL	.
8C)	.
8BB-'	.
8AA-X'J	.
(4AA-	.
4GG-X)	.
=279	=279
4FF	.
4r	p
2r	.
=280	=280
1r	.
=281	=281
1r	.
=282	=282
1r	.
=283	=283
(2.F	.
!LO:TX:b:i:t=dol.	!
8G-XL	.
8FJ	.
=284	=284
8E-XL	.
8F	.
8D-X	.
8AA-XJ	.
8D-L	.
8AA-	.
8FF	.
8AA-J	.
=285	=285
8D-XL	.
8E-X	.
8F	.
8G-XJ	.
8FL	.
8G-	.
8E-	.
8FJ)	.
=286	=286
(8E-XL	.
8G-X)	.
8E-'	.
8E-'J	.
(8E-L	.
8F)	.
8C'	.
8C'J	.
=287	=287
[1D-X	.
=288	=288
!!linebreak:original
8D-L]	.
8E-X	.
8C	.
8CJ	.
8CL	.
8D-X	.
8AA	.
8AAJ	.
=289	=289
[1BB-	.
=290	=290
(8BB-L]	.
8GG)	.
!LO:TX:b:i:t=cresc.	!
8GG'	.
8GG'J	.
(8GGL	.
8BB-)	.
8BB-'	.
8BB-'J	.
=291	=291
[1BB-	.
=292	=292
(8BB-L]	.
8GG)	.
8GG'	.
8GG'J	.
!LO:TX:b:i:t=cresc.	!
(8GGL	.
8BB-)	.
8BB-'	.
8BB-'J	.
=293	=293
(8BB-L	.
8GG)	.
8BB-'	.
8BB-'J	.
(8BB-L	.
8GG)	.
8BB-'	.
8BB-'J	.
=294	=294
(8BB-L	.
8GG)	.
8GG'	.
8EE'J	.
8AA-X'L	.
8FF'	.
8DD'	.
8GG'J	.
=295	=295
!!linebreak:original
!	!LO:DY:a
2CC	f
(12DDL	.
12EE	.
12FFJ	.
12GGL	.
12AA	.
12BBnJ)	.
=296	=296
2C	.
(12DL	sf
12C	.
12BBnJ	.
12EL	.
12D	.
12CJ)	.
=297	=297
2F	sf
(12EL	.
12D	.
12CJ	.
12BBnL	.
12AA	.
12GGJ)	.
=298	=298
8FF	.
8r	.
8EE	.
8r	.
8DD	.
8r	.
8GG	.
8r	.
=299	=299
4CC	.
4r	.
2r	.
=300	=300
1f	sf
=301	=301
1e	p
=302	=302
1e-X	.
=303	=303
1d	p
=304	=304
1d-X	sf
=305	=305
!!linebreak:original
1c	p
=306	=306
(2.C	>
8DL	.
8EJ)	]
=307	=307
[1F	.
=308	=308
!LO:TX:b:i:t=dol.	!
(2.F]	.
8GL	<
8AJ)	.
=309	=309
4B-	.
4A	.
4G	>
4c	.
=310	=310
4F	]
4B-	.
4c	.
4e	.
=311	=311
[1f	.
=312	=312
!LO:TX:b:i:t=cresc.	!
(2.f]	.
8gL	.
8aJ)	.
*clefG2	*
=313	=313
(12bb-'L	.
12ccc	.
12dddJ	.
12cccL	.
12bb-	.
12aaJ	.
12ggL	.
12aa	.
12bb-J	.
12cccL	.
12bb-	.
12cccJ)	.
=314	=314
!!linebreak:original
(4aa	sf
4bb-	p
4ccc	.
4bb-)	.
=315	=315
(4aa	.
4bb-	p
4ccc	.
4gg)	.
=316	=316
(4ff	sf
4gg	p
4aa	.
4gg)	.
=317	=317
(4ff	.
4gg	p
4aa	.
4gg)	.
=318	=318
(2ff	.
2gg	<
=319	=319
2aa	.
2bb-)	.
=320	=320
4bb-	p
4r	.
2r	.
*clefF4	*
=321	=321
4A	.
4r	.
2r	.
=322	=322
4BB-	.
4r	.
2r	.
=323	=323
4AA	.
4r	.
2r	.
=324	=324
!!linebreak:original
[1DD [1BBn	.
=325	=325
1DD_ 1BB_	.
=326	=326
1DD_ 1BB_	.
=327	=327
!LO:TX:a:i:t=cresc.	!
1DD] 1BB]	.
=328	=328
[1CC [1BB-	.
=329	=329
1CC] 1BB-]	.
=330	=330
(12CL	.
12BB-	.
12AAJ	.
12GGL	.
12AA	.
12FFJ)	.
12AA'L	.
12C'	.
12F'J	.
12C'L	.
12F'	.
12A'J	.
=331	=331
12FL	.
12A	.
12cJ	.
12AL	.
12F	.
12CJ	.
12AAL	.
12F	.
12CJ	.
12AAL	.
12C	.
12FFJ	.
=332	=332
2r	.
2d	.
=333	=333
2r	p
2CC	.
=334	=334
!!linebreak:original
2r	.
2d	.
=335	=335
2r	.
2CC	.
=336	=336
2r	.
2d'	.
=337	=337
2G'	f
2D-X'	.
=338	=338
!	!LO:DY:a
[1CC [1C	p
=339	=339
1CC] 1C]	.
=340	=340
[1FF [1C	.
=341	=341
1FF] 1C]	.
=342	=342
[1FF [1C	.
=343	=343
!LO:TX:a:i:t=cresc.	!
4FF] 4C]	.
2FF 2C	.
[4FF [4C	.
=344	=344
4FF] 4C]	.
2FF 2C	.
[4FF [4C	.
=345	=345
4FF] 4C]	.
2FF 2C	.
[4FF [4C	.
=346	=346
!!linebreak:original
8FFL] 8C]	.
8f'	.
8f'	.
8e'J	.
8f'L	.
8e'	.
8f'	.
8e'J	.
=347	=347
8f'L	.
8f'	.
8c'	.
8A'J	.
8F'L	.
8F'	.
8C'	.
8AA'J	.
=348	=348
4FF	.
4FF 4C	.
4FF 4C	.
4FF 4C	.
=349	=349
2.FF 2.C	.
8FFL 8C	.
8FFJ 8C	.
=350	=350
2FF 2C	.
4FF 4C	.
4GG 4C	.
=351	=351
1AA 1C	.
=352	=352
4BBn	.
4BB	.
4BB	.
4BB	.
=353	=353
2.BBn	.
4r	.
=354	=354
8C'L	.
8C'	.
8C'	.
8C'J	.
4C	.
4C	.
=355	=355
!!linebreak:original
2.C	.
*clefG2	*
8ee'L	.
8ff'J	.
=356	=356
(8ggL	.
8ff)	.
8ee'	.
8dd'J	.
4cc	.
4cc	.
*clefF4	*
=357	=357
[1c	.
=358	=358
1c_	.
=359	=359
2.c]	.
8f'L	.
8e'J	.
=360	=360
(8dL	.
8c)	.
8B-'	.
8A'J	.
4G	.
8F'L	.
8E'J	.
=361	=361
(8DL	.
8C)	.
8BB-'	.
8AA'J	.
(4GG	.
4GG#X)	.
=362	=362
1AA	<
=363	=363
1BB-	sf
=364	=364
[1C	p
=365	=365
(2.C]	.
4BB-)	.
=366	=366
!!linebreak:original
!LO:TX:b:i:t=cresc.	!
1AA	.
=367	=367
1BBn	.
=368	=368
4C	p
4r	.
2r	.
=369	=369
2r	.
12r	.
12FFL	.
12DDJ	.
12AAL	.
12FF	.
12DDJ	.
=370	=370
4CC	.
2G	.
4r	fp
=371	=371
2r	.
12r	.
12GGL	.
12EEJ	.
12BB-L	.
12GG	.
12EEJ	.
=372	=372
4CC	.
2A	.
4r	fp
=373	=373
1r	.
=374	=374
!	!LO:DY:a
[1FF	p
=375	=375
(4FF]	p
4GG	.
4AA	.
4BB-)	.
=376	=376
[1GG	.
=377	=377
(4GG]	.
4AA	.
4BB-	.
4C)	.
=378	=378
!!linebreak:original
!LO:TX:b:i:t=cresc.	!
12FL	.
12A	.
12FJ	.
12cL	.
12A	.
12FJ	.
12CL	.
12F	.
12CJ	.
12AL	.
12F	.
12CJ	.
=379	=379
4FF	.
4r	.
2r	.
=380	=380
12GGL	.
12G	.
12EJ	.
12B-L	.
12G	.
12EJ	.
12BB-L	.
12E	.
12BB-J	.
12GL	.
12E	.
12BB-J	.
=381	=381
4GG	.
4r	.
2r	.
=382	=382
!	!LO:DY:a
12AAL	f
12c	.
12AJ	.
12FL	.
12A	.
12FJ	.
12CL	.
12F	.
12CJ	.
12AAL	.
12C	.
12AAJ	.
=383	=383
!!linebreak:original
12GGL	.
12B-	.
12GJ	.
12EL	.
12G	.
12EJ	.
12BB-L	.
12E	.
12BB-J	.
12GGL	.
12GG	.
12GGJ	.
=384	=384
12GGL	.
!	!LO:DY:a
12GG	ff
12GGJ	ff
12GGL	.
12GG	.
12GGJ	.
12GGL	.
12GG	.
12GGJ	.
12GGL	.
12GG	.
12GGJ	.
=385	=385
[1GG	.
=386	=386
!LO:TX:b:i:t=dim.	!
1GG]	.
=387	=387
1FF	.
=388	=388
(12GGL	sf
12AA	.
12GGJ	p
12FFL	.
12EE	.
12DDJ	.
12CCL	.
12DD	.
12EEJ	.
12FFL	.
12GG	.
12EEJ)	.
=389	=389
1FF	.
=390	=390
!!linebreak:original
(12GGL	sf
12AA	.
12GGJ	p
12FFL	.
12EE	.
12DDJ	.
12CCL	.
12DD	.
12EEJ	.
12FFL	.
12GG	.
12EEJ)	.
=391	=391
!LO:TX:b:i:t=dim.	!
[1FF	.
=392	=392
1FF_	.
=393	=393
1FF]	.
=394	=394
2FF'	.
2FF'	.
=395	=395
1FF	.
=396	=396
2d'	pp
2d'	.
=397	=397
1d	.
=398	=398
!LO:TX:b:i:t=cresc.	!
1c	.
=399	=399
4F	f
4r	.
4C'	ff
4r	.
=400	=400
4AA'	.
4r	.
2r	.
==401	==401
!!linebreak:original
*k[b-e-]	*
*B-:	*
*M3/8	*
!LO:TX:a:B:t=Allegretto vivace e sempre scherzando.	!
16BB-'LL	pp
16BB-'JJ	.
8BB-'L	.
8BB-'J	.
=402	=402
16BB-'LL	.
16BB-'JJ	.
8BB-'L	.
8BB-'J	.
=403	=403
16BB-'LL	.
16BB-'	.
16BB-'	.
16BB-'	.
16BB-'	.
16BB-'JJ	.
=404	=404
4.BB-'	.
=405	=405
4.r	.
=406	=406
4.r	.
=407	=407
4.r	.
=408	=408
4.r	.
=409	=409
4.r	pp
=410	=410
4.r	.
=411	=411
4.r	.
=412	=412
4.r	.
=413	=413
4.r	pp
=414	=414
4.r	.
=415	=415
4.r	.
=416	=416
4.r	.
=417	=417
!LO:TX:b:i:t=cresc.	!
16c-X'LL	.
16c-'JJ	.
8c-'L	.
8c-'J	.
=418	=418
16c-X'LL	.
16c-'JJ	.
8c-'L	.
8c-'J	.
=419	=419
16c-X'LL	.
16c-'JJ	.
8c-'L	.
8c-'J	.
=420	=420
!!linebreak:original
16c-XLL	.
16c-	.
16c-	.
16c-	.
16c-	.
16c-JJ	.
=421	=421
[4.c	.
=422	=422
4.c]	f
=423	=423
(8B-L	p
!LO:TX:b:i:t=dol.	!
8F	.
8GJ	.
=424	=424
8E-L	.
8F	.
8E-J)	.
=425	=425
(8DL	.
8C	.
8BB-J	.
=426	=426
8EE-L	.
8FF	.
8EE-J)	.
=427	=427
(16.DDLL	f
32BB-JJk)	.
8E-'	.
8r	.
=428	=428
8r	.
8F'	.
8r	p
=429	=429
16BB-LL	ff
16BB-JJ	.
8BB-L	.
8BB-J	.
=430	=430
!!linebreak:original
16BB-LL	.
16BB-JJ	.
8BB-L	.
8BB-J	.
=431	=431
16BB-LL	.
16BB-	.
16BB-	.
16BB-	.
16BB-	.
16BB-JJ	.
=432	=432
4.B-	.
=433	=433
16AALL	sf
16AA	.
16AA	.
16AA	.
16AA	.
16AAJJ	.
=434	=434
4.A	sf
=435	=435
4.r	.
=436	=436
4.r	p
=437	=437
4.r	p
=438	=438
16AALL	.
16AA	p
16AA	.
16AA	.
16AA	.
16AAJJ	.
=439	=439
8DD	fp
8r	.
8r	.
=440	=440
4.r	.
=441	=441
!!linebreak:original
16r	.
16A'LL	.
16F'	p
16D'	.
16AA'	.
16FF'JJ	.
=442	=442
8GGL	.
8G	.
8G#XJ	.
=443	=443
8A	.
8r	.
8r	.
=444	=444
8r	.
8r	.
16r	.
16BB-'	.
=445	=445
8AA	.
8r	.
8r	.
=446	=446
!LO:TX:b:i:t=cresc.	!
4.d	.
=447	=447
(8.cL	.
16B-L	.
16A	.
16GJJ)	.
=448	=448
4F	f
(16FLL	>
16GJJ	.
=449	=449
8.AL	p
16GL	.
16F	.
16EnJJ)	.
=450	=450
4.D	.
=451	=451
!LO:TX:b:i:t=cresc.	!
(8.CL	.
16BB-L	.
16AA	.
16GGJJ)	.
=452	=452
!!linebreak:original
4FF	sf
(16FFLL	>
16GGJJ)	.
=453	=453
(8.AAL	p
16GGL	.
16FF	.
16EEnJJ)	.
=454	=454
8.DDL	pp
16AA'k	.
[8DJ	.
=455	=455
8DL]	.
16AA'L	.
16DD'JJ	.
[8AA	.
=456	=456
8AA]	.
16DD'LL	.
16AA'JJ	.
[8D	.
=457	=457
8D]	.
16AA'LL	.
16DD'JJ	.
8AA	.
=458	=458
!LO:TX:b:i:t=cresc.	!
(8DD	.
[4EE-X)	.
=459	=459
(8EE-L]	>
8AA	p
8DDJ)	.
=460	=460
(16.DLL	<
32E-XJJk)	.
[4E-	sf
=461	=461
(8E-L]	>
8AA	p
8DJ)	.
=462	=462
!!linebreak:original
16DDLL	pp
16DDJJ	.
8DDL	.
8DDJ	.
=463	=463
16DDLL	.
16DDJJ	.
8DDL	.
8DDJ	.
=464	=464
16DDLL	.
16DD	.
16DD	.
16DD	.
16DD	.
16DDJJ	.
=465	=465
(4.DD	.
=466	=466
4.CC	.
=467	=467
4GG-X	.
8FF)	>
=468	=468
16BB-'LL	pp
16BB-'JJ	.
8BB-'L	.
8BB-J	.
=469	=469
16BB-LL	.
16BB-JJ	.
8BB-L	.
8BB-J	.
=470	=470
16BB-LL	.
16BB-	.
16BB-	.
16BB-	.
16BB-	.
16BB-JJ	.
=471	=471
4.BB-	.
=472	=472
4.r	.
=473	=473
4.r	.
=474	=474
4.r	.
=475	=475
!	!LO:DY:a
4.r	pp
=476	=476
4.r	.
=477	=477
!	!LO:DY:a
4.r	pp
=478	=478
!LO:TX:a:i:t=cresc.	!
4.r	.
=479	=479
!LO:TX:b:i:t=cresc.	!
!LO:TX:b:i:t=cresc.	!
4.r	pp
=480	=480
4.r	.
=481	=481
4.r	.
=482	=482
4.r	.
=483	=483
4.r	.
=484	=484
4.r	.
=485	=485
4.r	.
=486	=486
4.r	.
=487	=487
4.r	.
=488	=488
4.r	.
=489	=489
4.r	.
=490	=490
!!linebreak:original
8r	pp
16qqC/	.
(16BB-LL	.
16AA)	sf
16qqC/	.
(16BB-	.
16AAJJ)	sf
=491	=491
16DLL	.
16D	f
16DJJ	.
16r	.
8r	.
=492	=492
16cLL	f
16c	.
16cJJ	.
16r	.
8r	.
=493	=493
16B-LL	.
16B-	.
16B-JJ	.
16r	.
8r	.
=494	=494
4.D 4.B-	sf
=495	=495
8D 8A	.
8r	.
16DLL	.
16DJJ	.
=496	=496
8r	.
16CLL	.
16CJJ	.
=497	=497
16BB-LL	.
16BB-JJ	.
8r	.
16GGLL	.
16GGJJ	.
=498	=498
16GGLL 16D	sf
16GG 16D	.
16GG 16D	.
16GG 16D	.
16GG 16D	.
16GGJJ 16D	.
=499	=499
!!linebreak:original
16DDLL	pp
16DD	.
16DD	.
16DD	.
16DD	.
16DDJJ	.
=500	=500
16CCLL	.
16CC	.
16GG-X	.
16GG-	.
16FF	.
16FFJJ	.
=501	=501
16BB-LL 16D	ff
16BB-JJ 16D	.
8BB-L 8D	.
8BB-J 8E-	.
=502	=502
16BB-LL 16D	.
16BB- 16D	.
16BB- 16D	.
16BB- 16D	.
16BB- 16D	.
16BB-JJ 16D	.
=503	=503
16BB-LL 16E-	.
16BB- 16E-	.
16BB- 16E-	.
16BB- 16E-	.
16BB- 16E-	.
16BB-JJ 16E-	.
=504	=504
16BB-'LL 16D	.
16F'JJ	.
16B-'LL	.
16d'	.
16c'	.
16A'JJ	.
=505	=505
16B-LL	.
16F	.
16D	.
16BB-	.
16E-	.
16E-JJ	.
=506	=506
!!linebreak:original
16DLL	.
16F	.
16B-	.
16d	.
16c	.
16AJJ	.
=507	=507
16B-LL	.
16BB-JJ	.
16B-LL	.
16B-	.
16B-	.
16B-JJ	.
=508	=508
16c#XLL	.
16c#	.
16c#	.
16c#	.
16c#	p
16c#JJ	.
=509	=509
16dLL	.
16d	.
16d	.
16d	.
16d	.
16dJJ	.
=510	=510
16enLL	.
16e	.
16e	.
16e	.
16e	f
16eJJ	.
=511	=511
16fLL	.
(32FL	.
32GJJJ)	.
16ALL	.
16F	.
16Bn	.
16GJJ	.
=512	=512
8c	.
8r	.
8r	.
=513	=513
!!linebreak:original
4r	.
16AA'LL	sf
16GG'JJ	.
=514	=514
4.CC	.
=515	=515
4.r	.
=516	=516
8r	.
[4F	f
=517	=517
4F]	>
[8F	.
=518	=518
8F]	]
8r	.
8r	.
=519	=519
8r	.
16r	.
!LO:TX:b:i:t=cresc.	!
(16d-XLL	.
16c)	.
16B-JJ	.
=520	=520
16A-XLL	.
16G	.
16F	.
16E-	.
!	!LO:DY:a
16D-X	sf
16CJJ	.
=521	=521
(8BB-	.
4C)	.
=522	=522
8FFL	p
8FJ	.
8r	.
=523	=523
8CCL	.
8C'	.
8C'J	.
=524	=524
!!linebreak:original
8F'L	<
(8FF	[
8DDJ	>
=525	=525
8EE-XL)	]
8E-X'	.
8E-X'J	.
=526	=526
8A-X'L	<
(8AA-X	.
8FF#XJ	>
=527	=527
8GGL)	]
8G'	.
8G'J	.
=528	=528
(8CL	.
8c	<
8dJ)	.
=529	=529
4e-X	.
(8f	f
=530	=530
16gLL)	.
16f'	.
16e-'	.
16A-X'	.
16G'	.
16GG'JJ	.
=531	=531
16C	.
16c'LL	.
16c'	.
16c'	.
16c'	.
16c'JJ	.
=532	=532
8.f	.
16d-XLL	.
16c	.
16B-JJ	.
=533	=533
!!linebreak:original
16A-XLL	.
16G	.
16F	.
16E-	.
16D-X	sf
16CJJ	.
=534	=534
(8BB-	.
4C)	sf
=535	=535
8FF	.
8r	.
(8A-X	p
=536	=536
!LO:TX:b:i:t=dol.	!
16.GLL	.
32FJk	.
8En	.
8GJ)	.
=537	=537
4F	<
(8c	[
=538	=538
16.B-LL	.
32A-XJk	.
8G	.
8B-J)	.
=539	=539
4A-X	.
*clefG2	*
(8ee-	.
=540	=540
16.ddLL	.
32ccJk	.
8bn	.
8ddJ)	.
=541	=541
!LO:TX:b:i:t=cresc.	!
(16.ccLL	.
32ddJk	.
8ee-	.
8ffJ	.
=542	=542
!!linebreak:original
4gg)	.
(8aa-X	f
=543	=543
16bb-LL)	.
16aa-X'	.
16gg'	.
16ff'	.
16ee-'	.
16dd'JJ	.
*clefF4	*
=544	=544
16e-'LL	.
16d-X'	.
16c'	.
16B-'	.
16A-X'	.
16G'JJ	.
=545	=545
16A-X'LL	.
16G'	.
16F'	.
16d-X'	.
16c'	.
16B-'JJ	.
=546	=546
16A-X'LL	.
16G'	.
16F'	.
16E-'	.
16D-X'	sf
16C'JJ	.
=547	=547
16BB-'LL	.
16GG'	.
16C'	.
16CC'	.
16DD'	.
16EEn'JJ	.
=548	=548
8FF	p
8r	.
8r	.
=549	=549
8r	.
8r	.
16r	.
16C	.
=550	=550
!!linebreak:original
8F	.
16r	.
16D-X'LL	.
16C'	.
16BB-'JJ	.
=551	=551
16AA-X'LL	pp
16GG'J	.
8FF'	.
8D-XJ	.
=552	=552
16BB-LL	.
16BB-J	.
8GG	.
8CJ	.
=553	=553
16FLL	.
!LO:TX:a:i:t=cresc.	!
16F	.
16D-X	.
16D-	.
16BB-	.
16BB-JJ	.
=554	=554
16GG-XLL	.
16GG-	.
16EE-	.
16EE-	.
16AA-X	.
16AA-JJ	.
=555	=555
16DD-XLL	fp
16d-X	.
16d-	.
16d-	.
16d-	.
16d-JJ	.
=556	=556
16e-LL	.
16e-	.
16e-	.
16e-	.
16e-	.
16e-JJ	.
=557	=557
!!linebreak:original
8d-X	.
16r	.
16AA-X'LL	.
16D-X'	.
16F'JJ	.
=558	=558
16E-'LL	.
16D-X'	.
16C'	.
16BB-'	.
16C'	.
16AA-X'JJ	.
=559	=559
16DD-XLL	.
16FF	.
16AA-XJJ	.
16r	.
8r	.
=560	=560
4.r	.
=561	=561
16CCLL	.
16FF	.
16AA-XJJ	.
=562	=562
4.r	.
=563	=563
16BBnLL	.
16D	.
16FJJ	.
=564	=564
4.r	.
=565	=565
!!linebreak:original
!LO:TX:b:i:t=cresc.	!
16AA-XLL	.
16D	.
16FJJ	.
16r	.
8r	.
=566	=566
4.r	.
=567	=567
16GGLL	f
16BBn	.
16D	.
16G	.
16Bn	.
[16dJJ	.
=568	=568
16dLL]	.
16Bn	.
16G	.
16D	.
16BBn	.
16GGJJ	.
=569	=569
16FF#XLL	ff
16FF#JJ	.
4FF#	.
=570	=570
4.r	.
=571	=571
(8BnL	p
8F#X	.
8G#XJ	.
=572	=572
8EnL	.
8F#X	.
8EJ)	.
=573	=573
!!linebreak:original
(8E-L	.
8F#X	.
8G#XJ	.
=574	=574
8EnL	.
8F#X	.
8EJ)	.
=575	=575
(16.D#XLL	.
32BBnJk)	.
8EnJ	.
8r	.
=576	=576
8r	.
8F#X	.
8r	.
=577	=577
4.BBn	.
=578	=578
(4.AA#X	pp
=579	=579
4.BBn	.
=580	=580
4.FF#X	.
=581	=581
4.GG#X	.
=582	=582
!LO:TX:a:i:t=poco rit.	!
4.DD#X)	.
=583	=583
!!linebreak:original
!LO:TX:b:i:t=dim.	!
[4.BB-X	.
=584	=584
!LO:TX:b:i:t=cresc.	!
!LO:TX:a:i:t=a tempo	!
4.BB-]	.
=585	=585
!	!LO:DY:a
16GG-X'LL	p
16B-'	.
16G-X'	.
16B-'	.
16G-'	.
16B-'JJ	.
=586	=586
16F'LL	.
16A-X'	.
16F'	.
16A-'	.
16F'	.
16A-'JJ	.
=587	=587
16G-XLL	.
16G-	.
16E-	.
16G-	.
16E-	.
16G-JJ	.
=588	=588
16DLL	.
16F	.
16D	.
16F	.
16D	.
16FJJ	.
=589	=589
16E-LL	.
16E-	.
16BB-	.
16E-	.
16BB-	.
16E-JJ	.
=590	=590
!!linebreak:original
!LO:TX:a:i:t=poco rit.	!
!LO:TX:b:i:t=dim.	!
16BB-LL	.
16C#X	.
16BB-	.
16C#	.
16BB-	.
16C#JJ	.
=591	=591
!LO:TX:a:i:t=a tempo	!
[4.C	.
=592	=592
4.C]	<
=593	=593
16CCLL 16C	[
16CCJ 16C	.
8CC 8C	.
8CCJ 8C	.
=594	=594
16CCLL 16C	.
16CCJ 16C	.
8CC 8C	.
8CCJ 8C	.
=595	=595
16CCLL 16C	.
16CC 16C	.
16CC 16C	.
16CC 16C	.
16CC 16C	.
16CCJJ 16C	.
=596	=596
4.CC 4.C	.
=597	=597
16GGLL	.
16G	.
16Bn	.
16d	.
16g	.
16DJJ	.
=598	=598
16GLL	.
16Bn	.
16d	.
16BBn	.
16D	.
16GJJ	.
=599	=599
!!linebreak:original
16GGLL	.
16BBn	.
16D	.
16G	.
16D	.
16BB-XJJ	.
=600	=600
16GGLL	.
16BB-X	.
16GG	.
16FF	.
16EEn	.
16AAJJ	.
=601	=601
[4.DD	.
=602	=602
!	!LO:DY:a
4.DD_	ff
=603	=603
4DD]	.
8DD	.
=604	=604
4DD	.
8D	.
=605	=605
!	!LO:DY:a
8D#X	sf
8r	.
8r	.
=606	=606
8r	.
16r	.
16D#XLL	.
16F#X	.
16AJJ	.
=607	=607
16cLL	.
16A	.
16F#X	.
16E-JJ	.
16CLL	.
16AAJJ	.
=608	=608
!!linebreak:original
16FF#XLL	.
16EE-JJ	.
16EE-LL	.
16EE-	.
16EE-	.
16EE-JJ	.
=609	=609
16EE-LL	.
16EE-	.
16EE-	.
16EE-	.
16EE-	.
16EE-JJ	.
=610	=610
16EE-LL	>
16EE-	.
16EE-	.
16EE-	.
16EE-	.
16EE-JJ	]
=611	=611
8EEn	p
8r	.
8r	.
=612	=612
4.r	.
*clefG2	*
=613	=613
16aa'LL	pp
16aa'J	.
8aa'	.
8aa'J	.
=614	=614
16aaLL	.
16aaJ	.
8aa	.
8aaJ	.
=615	=615
16aaLL	.
16aaJ	.
8aa	.
8aaJ	.
=616	=616
!!linebreak:original
16aaLL	.
16aaJ	.
8aaJ	.
8r	.
=617	=617
4.r	.
=618	=618
4.r	.
*clefF4	*
=619	=619
!LO:TX:b:i:t=sempre	!
16B-'LL	.
16A'	.
16G'	.
16F'	.
16En'	p
16B-'JJ	.
=620	=620
4r	.
16F'LL	.
16E-'JJ	.
=621	=621
16D'LL	.
16A-X'	.
16G'	.
16F'JJ	.
8r	.
=622	=622
4r	.
16e-'LL	.
16d'JJ	.
=623	=623
16c'LL	.
16e-'JJ	.
8r	.
16c'LL	.
16B-'JJ	.
=624	=624
16A'LL	.
16c'JJ	.
8r	.
8r	.
=625	=625
!!linebreak:original
16B-LL	.
16A	.
16G	.
16B-	.
16E-	.
16GJJ	.
=626	=626
16cLL	.
16B-JJ	.
16ALL	.
16c	.
!LO:TX:b:i:t=sempre stacc. e piano	!
16F	.
16AJJ	.
=627	=627
16B-LL	.
16A	.
16G	.
16B-	.
16c	.
16B-JJ	.
=628	=628
16A-XLL	.
16c	.
16d	.
16c	.
16B-	.
16dJJ	.
=629	=629
16e-LL	.
16e-JJ	.
*clefG2	*
16ddLL	.
16ee-	.
16ff	.
16ggJJ	.
=630	=630
16aa-XLL	.
16gg	.
16ff	.
16ee-	.
16dd	.
16ccJJ	.
=631	=631
!!linebreak:original
*clefF4	*
16BnLL	.
16A	.
16G	.
16f	.
!LO:TX:b:i:t=cresc.	!
16e-	.
16dJJ	.
=632	=632
16cLL	.
16B-X	.
16A	.
16B-	.
16A	.
16GJJ	.
=633	=633
16FLL	.
16E-	.
16D	.
16C	.
16A	.
16GJJ	.
=634	=634
16FLL	.
16En	.
16B-	.
16A	.
16G	.
16FJJ	.
=635	=635
16E-LL	.
16D	.
16C	.
16BB-	.
16AA	.
16BB-JJ	.
=636	=636
16CCLL	.
16DD	.
16EE-	.
16EEn	.
16FF	.
16FFJJ	.
=637	=637
16GG-XLL	ff
16GG-J	.
8GG-J	.
8r	.
=638	=638
4.r	.
=639	=639
4.r	p
=640	=640
4.r	.
=641	=641
!	!LO:DY:a
4.r	<
=642	=642
!!linebreak:original
16d-X'LL	p
16B-'	.
16G-X'	.
16D-X'	.
16BB-'	.
16GG-X'JJ	.
=643	=643
8FF	.
[4C-X^	.
=644	=644
8C-L]	.
16BB-L	.
16D-X'	.
16BB-'	.
16GG-X'JJ	.
=645	=645
16FF'LL	.
16AA-X'	.
16EE-'	.
16GG-X'	.
16AA-'	.
16AA-'JJ	.
=646	=646
(4.FF	.
=647	=647
4.AA-X	.
=648	=648
8GG-XL	<
8BB-	.
8EE-J)	>
=649	=649
4.FF	]
=650	=650
4.r	.
=651	=651
!!linebreak:original
8r	.
16r	.
16A-X'LL	.
16F-X'	.
16D-X'JJ	.
=652	=652
16C'LL	.
16E-'	.
16BB-'	.
16D-X'	.
16E-'	.
16d-X'JJ	.
=653	=653
!LO:TX:b:i:t=cresc.	!
4.c	.
=654	=654
4.e-	.
=655	=655
(8d-XTL	.
8f	.
8B-J)	.
=656	=656
8cL	.
8A-X	.
8A-J	.
=657	=657
[4.An	f
=658	=658
4.A]	>
=659	=659
8B-L	p
!LO:TX:b:i:t=dol.	!
8F	.
8GJ	.
=660	=660
8E-L	.
8F	.
8E-J	.
=661	=661
!!linebreak:original
!LO:TX:b:i:t=cresc.	!
(8DL	.
8C	.
8BB-J	.
=662	=662
8EE-L)	.
8FF	.
8EE-J	.
=663	=663
8DDL	.
8EE-J	f
8r	.
=664	=664
8r	.
8FF	f
8r	.
=665	=665
16BB-LL	ff
16BB-J	.
8BB-	.
8BB-J	.
=666	=666
16BB-LL	.
16BB-J	.
8BB-	.
8BB-J	.
=667	=667
16BB-LL	.
16BB-	.
16BB-	.
16BB-	.
16BB-	.
16BB-JJ	.
=668	=668
4.B-	.
=669	=669
16AALL	sf
16AA	.
16AA	.
16AA	.
16AA	.
16AAJJ	.
=670	=670
4.A	sf
=671	=671
4.r	.
=672	=672
4.r	p
=673	=673
4.r	.
=674	=674
!!linebreak:original
16DLL	p
16D	.
16D	.
16D	.
16D	.
16DJJ	.
=675	=675
8GG	.
8r	f
8r	.
=676	=676
4.r	.
=677	=677
16d'LL	p
16B-'	.
16G'	.
16D'JJ	.
16BB-'LL	.
16GG'JJ	.
=678	=678
8E-	.
8r	.
8E-	.
=679	=679
8D	.
8r	.
8r	.
=680	=680
8r	.
8r	.
16r	.
16E-	.
=681	=681
8D	p
8r	.
8r	.
=682	=682
4.g	.
=683	=683
(8.fL	<
16e-L	.
16d	[
16cJJ)	.
=684	=684
4B-	f
(16B-LL	>
16cJJ)	.
=685	=685
!!linebreak:original
(8.dL	p
16cL	.
16B-	.
16AJJ)	.
=686	=686
!LO:TX:b:i:t=cresc.	!
4.G	.
=687	=687
(8.FL	.
16E-L	.
16D	.
16CJJ)	.
=688	=688
4BB-	f
(16BB-LL	>
16CJJ)	.
=689	=689
(8.DL	p
16CL	.
16BB-	.
16AAJJ)	.
=690	=690
8.GGL	pp
16D'k	.
[8G'J	.
=691	=691
8GL]	.
16D'L	.
16G'J	.
[8DJ	.
=692	=692
8DL]	.
16GGL	.
16DJ	.
[8GJ	.
=693	=693
8GL]	.
16DL	.
16GJ	.
8DJ	.
=694	=694
!LO:TX:b:i:t=cresc.	!
(8GG	.
[4AA-X)	sf
=695	=695
8AA-L]	]
(8DD	p
8GGJ)	.
=696	=696
!!linebreak:original
!LO:TX:b:i:t=cresc.	!
(16.GGLL	.
32AA-XJJk)	.
[4AA-	sf
=697	=697
(8AA-L]	]
8DD	]
8GGJ)	.
=698	=698
16GGLL	pp
16GGJ	.
8GG	.
8GGJ	.
=699	=699
16GGLL	.
16GG	.
16GG	.
16GG	.
16GG	.
16GGJJ	.
=700	=700
(4.GG	.
=701	=701
4.AA	.
=702	=702
4.BB-	.
=703	=703
4DD-X	.
!	!LO:DY:a
8CC)	>
=704	=704
16FFLL	pp
16FFJ	.
8FF	.
8FFJ	.
=705	=705
16FFLL	.
16FFJ	.
8FF	.
8FFJ	.
=706	=706
16FFLL	<
!	!LO:DY:a
16FF	<
16FF	.
16FF	.
16FF	.
16FFJJ	>
=707	=707
!!linebreak:original
4.FF	.
=708	=708
4.r	]
=709	=709
4.r	]
=710	=710
4.r	.
=711	=711
4.r	.
=712	=712
4.r	.
=713	=713
4.r	.
=714	=714
16r	.
16dLL	.
!LO:TX:b:i:t=cresc.	!
16d	.
16dJJ	.
8d	.
=715	=715
(4.en	pp
=716	=716
4.c	.
=717	=717
[4.Bn	.
=718	=718
8BL])	>
8G#X	.
8AJ)	]
=719	=719
4.En	pp
=720	=720
4.r	.
=721	=721
16c#X'LL	.
16Bn'	.
16A'	.
16G#X'	.
16F#X'	.
16B'JJ	.
=722	=722
8G#X'	.
4En'	.
=723	=723
4.r	.
=724	=724
4.r	.
=725	=725
4.r	.
=726	=726
!!linebreak:original
!	!LO:DY:a
8r	f
8qqGG/	sf
(16FFLL	.
16EEnJJ)	.
8qqGG/	sf
(16FFLL	.
16EEJJ)	.
=727	=727
16AALL	ff
16AAJJ	.
8r	.
16AALL	.
16AAJJ	.
=728	=728
8r	.
16GGLL	.
16GGJJ	.
8r	.
=729	=729
16FFLL	.
16FFJJ	.
8r	.
16FFLL	.
16FFJJ	.
=730	=730
16DDLL 16AA	sf
16DD 16AA	.
16DD 16AA	.
16DD 16AA	.
16DD 16AA	.
16DDJJ 16AA	.
=731	=731
8AA	ff
16AALL	.
16AAJJ	.
8r	.
=732	=732
16GGLL	.
16GGJJ	.
8r	.
16GGLL	.
16GGJJ	.
=733	=733
8r	.
16FFLL	.
16FFJJ	.
8r	.
=734	=734
16DDLL 16AA	.
16DD 16AA	.
16DD 16AA	.
16DD 16AA	.
16DD 16AA	.
16DDJJ 16AA	.
=735	=735
16AALL	pp
16AA	.
16AA	.
16AA	.
16AA	.
16AAJJ	.
=736	=736
!!linebreak:original
16CLL	.
16C	.
16C	.
16CJJ	.
16FFLL	.
16FFJJ	.
=737	=737
16BB-LL 16D	ff
16BB-JJ 16D	.
8BB-L 8D	.
8BB-J 8E-	.
=738	=738
16BB-LL 16D	.
16BB-JJ 16D	.
8BB-L 8D	.
8BB-J 8D	sf
=739	=739
16BB-LL 16E-	.
16BB- 16F	.
16BB- 16G	.
16BB- 16F	.
16BB- 16E-	.
16BB-JJ 16E-	.
=740	=740
16BB-LL	.
16D	.
16F	.
16B-	.
16d	.
16cJJ	.
=741	=741
16B-LL	.
16FJJ	.
16DLL	.
16BB-	.
16F	.
16FFJJ	.
=742	=742
16BB-LL	.
16BB-JJ	.
16B-LL	sf
16B-	.
16B-	.
16B-JJ	.
=743	=743
16B-LL	p
16BB-JJ	.
16B-LL	.
16B-	.
16B-	sf
16B-JJ	p
=744	=744
!!linebreak:original
16cLL	.
16C	.
16c	.
16cJJ	.
16cLL	sf
16cJJ	p
=745	=745
16cLL	.
16C	.
16c	.
16cJJ	.
16cLL	sf
16cJJ	p
=746	=746
16dLL	.
16D	.
16d	.
16dJJ	.
16dLL	sf
16dJJ	p
=747	=747
16e-LL	.
16E-	.
16e-	.
16e-JJ	.
16enLL	sf
16eJJ	p
=748	=748
16fLL	.
16F	.
16f	.
16fJJ	.
16enLL	p
16eJJ	.
=749	=749
16fLL	.
16F	.
16F	.
16FJJ	.
16EnLL	sf
16EJJ	p
=750	=750
16FLL	.
16f	.
16f	.
16fJJ	.
16enLL	sf
16eJJ	p
=751	=751
!!linebreak:original
8f	f
8r	.
8r	.
=752	=752
4r	.
16D'LL	f
16C'JJ	.
=753	=753
4FF	.
8r	.
=754	=754
!	!LO:DY:a
4.r	p
=755	=755
!LO:TX:a:i:t=cresc.	!
8r	.
4B-	f
=756	=756
4B-	>
8B-	.
=757	=757
8B-	p
8r	.
8r	.
=758	=758
8r	.
16r	.
!LO:TX:b:i:t=cresc.	!
16G-X'LL	.
16F'	.
16E-'JJ	.
=759	=759
16D-X'LL	.
16C'	.
16BB-'	sf
16GG-X'	.
16FF'	.
16EE-'JJ	.
=760	=760
!	!LO:DY:a
16DD-X'LL	>
16EE-'JJ	.
4FF	.
=761	=761
!!linebreak:original
8BB-	p
8r	.
8r	.
=762	=762
8FF'L	.
8F	.
8FJ	.
=763	=763
8B-L	.
(8BB-	.
8GGJ	.
=764	=764
8AA-XL)	.
8A-X	.
8A-J	.
=765	=765
8d-XL	.
(8D-X	.
8BBnJ	.
=766	=766
8CL)	.
8c	.
8CJ	.
=767	=767
(16.FFLL	.
32GGJk	.
8AA-X	.
8BB-J	.
=768	=768
4C	.
8D-X	.
=769	=769
16E-X'LL)	.
16D-X'	.
16C'	.
16BB-'	.
16AA-X'	.
16GG'JJ	.
=770	=770
!!linebreak:original
16AA-X'LL	.
16GG'JJ	.
4FF	.
=771	=771
8r	.
16r	.
16G-X'LL	.
16F'	.
16E-'JJ	.
=772	=772
16D-X'LL	.
16C'	.
16BB-'	.
16GG-X'	.
16FF'	sf
16EE-'JJ	.
=773	=773
16DD'LL	.
16EE-X'JJ	.
4FF	.
=774	=774
!	!LO:DY:a
8BB-	sf
8r	.
*clefG2	*
!LO:TX:a:i:t=dol.	!
8dd-X	.
=775	=775
16.ccLL	.
32b-Jk	.
8an	.
8ccJ	.
=776	=776
4b-	.
8ff	.
=777	=777
16.ee-LL	.
32dd-XJk	.
8cc	.
8ee-J	.
=778	=778
!!linebreak:original
4dd-X	.
8aa-X	.
=779	=779
16.ggLL	.
32ffJk	.
8een	.
8ggJ	.
=780	=780
!LO:TX:b:i:t=cresc.	!
16.ffLL	.
32ggJk	.
8aa-X	.
8bb-J	.
=781	=781
4ccc	.
(8ddd-X	sf
=782	=782
16eee-LL)	.
16ddd-X'	.
16ccc'	.
16bb-'	.
16aa-X'	.
16gg'JJ	.
=783	=783
16aa-XLL	.
16gg-X	.
16ff	.
16ee-	.
16dd-X	.
16ccJJ	.
*clefF4	*
=784	=784
8B-	.
16r	.
16G-X'LL	.
16F'	.
16E-'JJ	.
=785	=785
!!linebreak:original
16D-X'LL	.
16C'	.
16BB-'	.
16GG-X	.
16FF	.
16EE-JJ	.
=786	=786
16DD-XLL	.
16EE-JJ	.
8.FFL	sf
16FFJk	>
=787	=787
8BB-	p
8r	.
8r	.
=788	=788
4r	.
16r	.
16F	.
=789	=789
8B-	.
16r	.
16G-X'LL	.
16F'	.
16E-'JJ	.
=790	=790
16D-XLL	pp
16CJJ	.
8BB-L	.
8GG-XJ	.
=791	=791
16EE-LL	.
16EE-JJ	.
8CCL	.
8FFJ	.
=792	=792
!LO:TX:a:i:t=cresc.	!
16BB-LL	.
16B-JJ	.
16G-XLL	.
16G-	.
16E-	.
16E-JJ	.
=793	=793
!!linebreak:original
16C-XLL	.
16C-	.
16AA-X	.
16AA-	.
16D-X	.
16D-JJ	.
=794	=794
!	!LO:DY:a
16GG-X'LL	fp
16G-X'	.
16G-'	.
16G-'	.
16G-'	.
16G-'JJ	.
=795	=795
16A-X'LL	.
16A-'	.
16A-'	.
16A-'	.
16A-'	.
16A-'JJ	.
=796	=796
8B-	.
16r	.
16DD-X'LL	.
16GG-X'	.
16BB-'JJ	.
=797	=797
16AA-X'LL	.
16GG-X'	.
16FF'	.
16EE-'	.
16FF'	.
16DD-X'JJ	.
=798	=798
16GG-X'LL	.
16BB-'	.
16D-X'JJ	.
=799	=799
4.r	.
=800	=800
!!linebreak:original
16FF'LL	.
16BB-'	.
16D-X'JJ	.
16r	.
8r	.
=801	=801
4.r	.
=802	=802
!LO:TX:b:i:t=cresc.	!
16EEnLL	.
16GG	.
16BB-JJ	.
16r	.
8r	.
=803	=803
16DD-XLL	.
16FF	.
16BB-JJ	.
16r	.
8r	.
=804	=804
16CC'LL	p
16EEn'	.
16GG'	.
16EE'	.
16FF'	.
16DD'JJ	.
=805	=805
16AA'LL	.
16FF'	.
16GG'	.
16EEn'	.
16BB-'	.
16GG'JJ	.
=806	=806
16AALL	.
16FF	.
16C	.
16AA	.
16BB-	.
16GGJJ	.
=807	=807
16DLL	.
16BB-	.
16GG	.
16BB-	.
16EEn	.
16CJJ	.
=808	=808
!!linebreak:original
16AALL	.
16C	.
16FF	.
16AA	.
16GG	.
16BB-JJ	.
=809	=809
16BB-LL	.
16D	.
16AA	.
16C	.
16C	.
16E-JJ	.
=810	=810
16BB-LL	.
16D	.
16D	.
16F	.
16C	.
16E-JJ	.
=811	=811
16E-LL	.
16G	.
16E-	.
16G	.
16E- 16F	.
16E-JJ	.
=812	=812
16DLL	.
!LO:TX:b:i:t=cresc.	!
16BB-	.
16BBn	.
16D	.
16C	.
16E-JJ	.
=813	=813
16C#XLL	.
16En	.
16D	.
16F	.
16D	.
16FJJ	.
=814	=814
16E-XLL	.
16G	.
16En	.
16G	.
16F	.
16AJJ	.
=815	=815
!!linebreak:original
16F#XLL	.
16A	.
16G	.
16B-	.
16G	.
16B-JJ	.
=816	=816
16A'LL	f
16c'	.
16e-'	.
16d'	.
16c'	.
16B-'JJ	.
=817	=817
!LO:TX:b:i:t=piu	!
16A'LL	.
16G'	.
16F'	f
16E-'	.
16D'	.
16C'JJ	.
=818	=818
16BB-LL	.
16AA	.
16GG	.
16D	.
16C	.
16BB-JJ	.
=819	=819
16AALL	ff
16GG	.
16FF	.
16EE-	.
16DD	.
16CCJJ	.
=820	=820
16BB-LL	.
16BB-J	p
8BB-	.
8BB-J	.
=821	=821
16BB-LL	.
16BB-J	.
8BB-	.
8BB-J	.
=822	=822
16BB-LL	<
16BB-	.
16BB-	.
16BB-	>
16BB-	.
16BB-JJ	.
=823	=823
!!linebreak:original
8BB-	]
8r	.
8r	.
=824	=824
4.r	.
=825	=825
4.r	.
=826	=826
8r	pp
16r	.
16GG'LL	pp
16C'	.
16EEn'JJ	.
=827	=827
8FF	.
8r	.
8r	.
*clefG2	*
=828	=828
(4.cc	.
=829	=829
4.ee-)	p
=830	=830
(8dd-XL	<
8ff	.
8b-J)	>
=831	=831
8.cc	]
16EE-LL	pp
16AA-X	.
16CJJ	.
*clefF4	*
=832	=832
16BB-'LL	.
16AA-X'	.
16GG'JJ	.
16r	.
8r	.
=833	=833
4.r	.
=834	=834
4.r	.
=835	=835
4.r	.
=836	=836
!LO:TX:b:i:t=cresc.	!
16c-XLL	.
16c-J	.
8c-	.
8c-J	.
=837	=837
!!linebreak:original
16c-XLL	.
16c-J	.
8c-	.
8c-J	.
=838	=838
16c-XLL	.
16c-	.
16c-	.
16c-	.
16c-	.
16c-JJ	.
=839	=839
8c-X	.
8C-XL	.
8C-J	.
=840	=840
[4.Cn	f
=841	=841
4.C]	>
=842	=842
(8BB-L	]
8C	p
!LO:TX:b:i:t=dol.	!
8BB-J	.
=843	=843
8EE-L	.
8FF	.
8EE-J)	.
=844	=844
(8DDL	.
8AA	.
8BB-J	.
=845	=845
!LO:TX:b:i:t=cresc.	!
8E-L	.
8F	.
8FFJ)	.
=846	=846
16FF#XLL	ff
16FF#J	.
8FF#J	.
8r	.
=847	=847
4.r	.
=848	=848
!!linebreak:original
!LO:TX:a:i:t=poco rit.	!
16E-LL	p
16E-J	.
8E-J	.
8r	.
=849	=849
4.r	.
=850	=850
!LO:TX:a:i:t=a tempo	!
(8EnL	.
8BBn	.
8CJ	.
=851	=851
8AAL	.
8BBn	.
8AAJ)	.
=852	=852
(8GGL	.
8FF#X	.
8EEnJ	.
=853	=853
8AAL	.
8BBn	.
8BBJ)	.
=854	=854
16CLL	pp
16C	.
16C	.
16C	.
16C	.
16CJJ	.
=855	=855
!LO:TX:b:i:t=sempre	!
16C-XLL	.
16C-	.
16C-	.
16C-	pp
16C-	.
16C-JJ	.
=856	=856
16C-XLL	.
16BB-	.
16AA	.
16AA	.
16AA-X	.
16AA-JJ	.
=857	=857
!!linebreak:original
16GGLL	.
16GG	.
16GG-X	.
16GG-	.
16FF	.
16FFJJ	.
=858	=858
16FLL	.
16F	.
16F	.
16F	.
16F	.
16FJJ	.
=859	=859
16FFLL	.
16FF	.
16FF	.
16FF	.
16FF	.
16FFJJ	.
=860	=860
16BB-LL	.
16BB-	.
16BB-	.
16BB-	.
16BB-	.
16BB-JJ	.
=861	=861
16E-LL	.
16E-	.
16E-	.
16E-	.
16E-	.
16E-JJ	.
=862	=862
16DLL	.
16D	.
16D	.
16D	.
16D	.
16DJJ	.
=863	=863
16CLL	.
16C	.
16C	.
16C	.
16C	.
16CJJ	.
=864	=864
!!linebreak:original
16BB-LL	.
16BB-	.
16BB-	.
16FF	.
16BB-	.
16DJJ	.
=865	=865
16CLL	.
16BB-	.
16AA	.
16GG	.
16AA	.
16FFJJ	.
=866	=866
16BB-LL	.
16D	.
16FJJ	.
16r	.
8r	.
=867	=867
4.r	.
=868	=868
4.r	.
=869	=869
!LO:TX:a:t=pizz.	!
8F	.
8r	.
8r	.
=870	=870
4.r	.
=871	=871
4.r	.
=872	=872
4.r	.
=873	=873
!LO:TX:a:t=arco	!
16BB-LL	ff
16BB-	.
16BB-	.
16BB-	.
16BB-	.
16BB-JJ	.
=874	=874
4.B-	.
=875	=875
4.BB-	sf
=876	=876
4BB-	f
8r	.
==877	==877
!!linebreak:original
*k[b-e-a-d-]	*
*f:	*
*M2/4	*
!LO:TX:a:B:t=Adagio molto e mesto	!
2r	.
=878	=878
4r	.
!LO:TX:a:i:t=sotto voce.	!
[4C	p
=879	=879
8CL]	.
8CJ	.
8FFL	.
[8FJ	.
=880	=880
(8FL]	.
8A-J	.
8.GL	.
16FJk)	.
=881	=881
(16EnLL	.
16C)	.
(16F'	.
!LO:TX:b:i:t=cresc.	!
16A-'JJ)	.
4c	.
=882	=882
(8B-L	.
8d-J	<
8.cL	[
16A-Jk)	>
=883	=883
(8B-L	<
8d-J	.
8.cL	.
16A-Jk)	.
=884	=884
4G	f
8..FL	sf
32D-Jkk	[
=885	=885
!!linebreak:original
!LO:TX:a:i:t=morendo.	!
(8BB-L	.
8CJ)	.
(8.CL	.
16cJk)	<
*clefG2	*
=886	=886
(8ccL	p
16.ee-L	.
!LO:TX:b:i:t=espressivo	!
32dd-JJk	.
8fL	.
16enJk)	.
16r	.
=887	=887
(8fL	.
16.ccL	.
32gJJk	.
8b-L	.
16a-Jk)	.
16r	.
=888	=888
*^	*
(8..ccL	4..ryy	.
32ffJkk)	.	.
(8ffL	.	.
16eenL	.	.
.	1%0ff\yy	.
.	1%0gg\yy	.
.	1%0ff\yy	.
*v	*v	*
16ffTJJ)	.
16qqee/LL	.
16qqff/JJ	.
=889	=889
16ggLL	.
16cc	.
(16cc	.
!LO:TX:b:i:t=cresc.	!
16bnJJ)	.
(8bL	.
8ccJ)	.
=890	=890
(8dd-L	.
16.b-L	p
32ee-JJk)	<
(8.ee-L	>
16ccJk)	]
=891	=891
!!linebreak:original
(16ee-LL	.
16dd-	<
16.b-	.
32ee-JJk)	.
4ee-	[
=892	=892
4een	f
8..ffL	f
32fJkk	.
=893	=893
!LO:TX:a:i:t=morendo.	!
(8dd-L	.
8cc	.
8fJ)	.
*clefF4	*
16.r	.
32FF	.
=894	=894
(8D-L	.
8CJ)	.
[4BBn	.
=895	=895
(8BBL]	.
!LO:TX:a:i:t=cresc.	!
8CJ	.
8A-L	.
8AnJ)	.
=896	=896
(4G	.
8A-L	sf
8AnJ)	>
=897	=897
!LO:TX:b:i:t=cresc.	!
8.GL	]
16ggJk	.
8aa-L	.
8aanJ	sf
=898	=898
[2gg	f
=899	=899
!!linebreak:original
*clefG2	*
8gg]	.
*clefF4	*
(32GLLL	.
32GG)	.
32AAn'	.
32BBn'JJJ	.
8C	.
(32CLLL	.
32CC)	.
32EE-'	.
32FF'JJJ	.
=900	=900
4GG	.
4r	.
*clefC4	*
=901	=901
!	!LO:DY:a
8cL	p
!LO:TX:b:i:t=espressivo	!
8e-J	.
8.gL	.
16cJk	.
=902	=902
(8BnL	.
8dnJ	.
8.gL	.
16fJk)	.
=903	=903
(16e-LL	p
!	!LO:DY:a
16c	p
16Bn	.
16cJJ	.
16BLL	.
16c	.
16dn	.
16e-JJ	.
=904	=904
16fLL	.
16e-	.
16dn	.
16cJJ	.
16BnLL	.
16d	.
16G	.
16FJJ)	.
=905	=905
!!linebreak:original
*clefF4	*
(8E-L	.
8C	.
8.BB-	sf
16DnJk)	p
=906	=906
(8FL	.
8AA-	.
8.GG	sf
16BB-Jk)	p
=907	=907
(8D-L	.
8FF	.
8.EE-	sf
16CJk)	p
=908	=908
[8DDnL	.
32DDLL]	.
32FF#X	.
32AAn	.
32CJJJ	.
32DnLLL	.
32F#X	.
32An	.
32cJJJ	.
(16c#XLL	.
16dnJJ)	.
=909	=909
[8GGL	.
32GGLL]	.
32BBn	.
32Dn	.
32FJJJ	.
32GLLL	.
32Bn	.
32dn	.
32fJJJ	.
(16f#XLL	.
16gJJ)	.
=910	=910
!!linebreak:original
32r	.
(32CCLLL	.
32C)	.
32CJJJ	.
32r	.
(32FFLLL	.
32F)	.
32FJJJ	.
32r	.
(32BBnLLL	.
32Bn)	.
32BJJJ	.
32r	.
(32CLLL	.
32c)	.
32cJJJ	.
=911	=911
(32cLLL	.
32d-JJJ)	.
32r	.
32dn	.
(32dLLL	.
32e-JJJ)	.
16r	.
8r	.
!LO:TX:a:i:t=cresc.	!
16.r	.
64En	.
64r	.
=912	=912
(32EnLLL	.
32F)	.
(32F	.
32DnJJJ)	.
(32DLLL	.
32E-X)	.
(32E-	.
32BBnJJJ)	.
(32BBLLL	.
32C)	.
(32C	.
32BB-XJJJ)	.
(32BB-LLL	.
32AA-)	.
(32GG	.
32FFJJJ)	.
=913	=913
!!linebreak:original
8FF#X'	f
8r	.
8AA-X'	f
8r	.
=914	=914
8GG	p
8r	.
4r	.
=915	=915
8r	.
16qqGG/LL	.
16qqBB-/JJ	.
32.AA-'LLL	.
64GG'JJJk	.
16GG	.
16qqGG/LL	.
16qqBB-/JJ	.
32.AA-'LLL	.
64GG'JJJk	.
16GGLL	.
16qqGG/LL	.
16qqBB-/JJ	.
32.AA-'L	.
64GG'JJJk	.
=916	=916
16CC	.
16r	.
8r	.
4r	.
=917	=917
16.r	.
32GG	.
32r	.
(64GGLLLL	.
64BB-J)	.
32AA-'	.
32GG'JJJ	.
32r	.
(64GGLLLL	.
64BB-J)	.
32AA-	.
32GG'JJJ	.
32r	.
(64GGLLLL	.
64BBnJ)	.
32AAn'	.
32GG'JJJ	.
=918	=918
!!linebreak:original
(8CL	pp
8E-	.
8Dn	.
8GGJ)	.
=919	=919
(8.CL	.
!	!LO:DY:a
16E-k	<
!	!LO:DY:a
8Dn	>
8GGJ)	.
=920	=920
8C	]
8r	.
8r	.
16.r	.
32G	.
=921	=921
8C	.
8r	.
16.r	.
32A-	.
16G	.
32r	.
32GG	.
=922	=922
8CC	.
8r	.
8B-	.
8r	.
*clefC4	*
=923	=923
(8A-L	.
8c	.
8.e-	.
16A-Jk)	.
=924	=924
(8GL	.
8B-	.
8.e-	.
16d-XJk)	.
=925	=925
!!linebreak:original
(16cLL	.
16A-	.
16G	.
16A-JJ	.
16GLL	.
16A-	.
16B-	.
16cJJ)	.
=926	=926
(16d-LL	.
16c	.
16B-	.
16A-JJ	.
16GLL	.
16B-	.
16E-	.
16D-JJ)	.
*clefF4	*
=927	=927
(16CLL	.
16BB-	.
16AA-	.
16GGJJ	.
16AA-LL	.
16GG-X	.
16EE-	.
16CCJJ)	.
=928	=928
(8DD-L	.
8FF	.
8.AA-	.
16DD-Jk)	.
=929	=929
(8CCL	.
8EE-	.
8.AA-	.
16CCJk)	.
=930	=930
8CCL	.
8EEnJ	.
!LO:TX:b:i:t=cresc.	!
8GG#XL	.
16.C#XL	.
32CC#XJJk	.
=931	=931
!!linebreak:original
8CC#XL	.
8FF#XJ	.
8AAnL	.
16.C#XL	.
32CC#JJk	.
=932	=932
8DDnL	ff
8FF#X	.
8AAn	.
16.DnL	.
32DDJJk	.
=933	=933
4.Dn	sf
*clefG2	*
[8ddn	]
=934	=934
(8ddL]	p
16.ffL	.
32ee-JJk	.
8gL	p
8f#XJ)	.
=935	=935
(8gL	.
16.ddnL	.
32anJJk)	.
(8ccL	.
16bnJk)	.
16r	.
*clefF4	*
=936	=936
!LO:TX:a:t=pizz.	!
!LO:TX:b:i:t=dim.	!
32E-LLL	.
32C	.
32Dn	.
32E-JJJ	.
32FLLL	.
32D	.
32E-	.
32FJJJ	.
32GLLL	.
32GG	.
32BBn	.
32D	.
32G	.
32A-	.
32G	.
32FJJJ	.
=937	=937
!!linebreak:original
32E-LLL	.
32G	.
32E-	.
32CJJJ	.
32BBnLLL	.
32Dn	.
32BB	.
32GGJJJ	.
32CLLL	.
32CC	.
32EEn	.
32GGJJJ	.
32CLLL	.
32GG	.
32EE	.
32CCJJJ	.
=938	=938
32FFLLL	.
32FF	.
32AAn	.
32CJJJ	.
32FLLL	.
32C	.
32AA	.
32FFJJJ	.
32BB-LLL	.
32Dn	.
32F	.
32B-JJJ	.
32BnLLL	.
32G	.
32D	.
32BBnJJJ	.
=939	=939
32CLLL	.
32CC	.
32EE-	.
32GGJJJ	.
32CLLL	.
32AA-	.
32EE-	.
32CCJJJ	.
32DD-LLL	.
32FF	.
32AA-	.
32D-JJJ	.
32DnLLL	.
32BB-	.
32FF	.
32DDnJJJ	.
=940	=940
!!linebreak:original
32EE-LLL	.
32GG	.
32BB-	.
32E-JJJ	.
32EnLLL	.
32C	.
32GG	.
32EEnJJJ	.
32FFLLL	.
32AA-	.
32C	.
[32FJJJ	.
32GGLLL	.
32BB-	.
32E-X	.
32GJJJ	.
=941	=941
32AA-LLL	.
32C	.
32E-	.
32A-JJJ	.
32AAnLLL	.
32C	.
32F	.
32AnJJJ	.
32BB-LLL	.
32D-	.
32F	.
32B-JJJ	.
32CLLL	.
32E-	.
32A	.
32cJJJ	.
=942	=942
32D-LLL	.
32F	.
32B-	.
32d-JJJ	.
32CLLL	.
32F	.
32A-	.
32cJJJ	.
32BB-LLL	.
32B-	.
32AA-	.
32A-JJJ	.
32GGLLL	.
32G	.
32FF	.
32FJJJ	.
=943	=943
!!linebreak:original
32EEnLLL	f
32En	.
32DD-	.
32D-	.
32CC	.
32CJ	.
16BB-JJ	.
16AA-LL 16B-	.
16GG 16A-	.
16FF 16G	.
32FFL 32F	.
32AA-JJJ	.
=944	=944
!	!LO:DY:a
16CC	p
16r	.
!LO:TX:b:t=arco	!
8enL	.
8e	.
8fJ	.
=945	=945
8g	.
16r	.
16qqCC/LL	.
16qqEE-/JJ	.
32.DD-LLL	.
64CCJJJk	.
16CC	.
16qqCC/LL	.
16qqEE-/JJ	.
32.DD-LLL	.
64CCJJJk	.
16CCLL	.
16qqCC/LL	.
16qqEE-/JJ	.
32.DD-L	.
64CCJJJk	.
=946	=946
8CC	.
8r	.
4r	.
=947	=947
!LO:TX:b:i:t=poco rit.	!
2r	.
=948	=948
!!linebreak:original
!LO:TX:a:i:t=a tempo.	!
(4.F	pp
8G-X)	.
=949	=949
!LO:TX:a:i:t=molto cantabile.	!
(2D-	.
=950	=950
4C	.
4AA-	.
=951	=951
4BB-	.
4GG-X	.
=952	=952
2AA-)	.
=953	=953
[4D-	.
(16D-LL]	.
16F	.
16D-	.
16FJJ)	.
=954	=954
(4A-	.
16E-LL	.
16G-X	.
16E-	.
16G-JJ)	.
=955	=955
(4B-	.
16FLL	.
16AA-	.
16FF	.
16AA-JJ)	.
=956	=956
(4C	.
!LO:TX:a:i:t=cresc.	!
8AA-L	.
8FFJ)	.
=957	=957
!!linebreak:original
(8.CCL	p
!LO:TX:b:i:t=cresc.	!
16FFJk	.
8CCL	.
8GGJ)	sf
=958	=958
(8.CCL	p
!LO:TX:b:i:t=cresc.	!
16FFJk	.
8CCL	.
8GGJ)	sf
=959	=959
!LO:TX:b:i:t=dim.	!
8CC	p
8r	.
4r	.
=960	=960
2r	.
=961	=961
!LO:TX:a:t=pizz.	!
!LO:TX:b:t=arco	!
8FFL	.
8AA-J	.
8GGL	.
8BB-J	.
=962	=962
16AA-LL	.
16FF	.
16EEn	.
16CCJJ	.
8FF	.
8r	.
=963	=963
8FFL	.
16r	.
16AA-Jk	.
8GGL	.
16r	.
16FFJk	.
=964	=964
16EEnLL	.
16CC	.
16FF	.
16AA-JJ	.
8C	.
8r	.
=965	=965
8BB-L	<
8D-	.
8CJ	[
16r	>
16AA-	.
=966	=966
!!linebreak:original
!LO:TX:b:i:t=cresc.	!
16BB-LL	]
16EE-	.
16D-	.
16BB-JJ	.
8CL	.
16r	.
16AA-Jk	.
=967	=967
8GGL	f
16r	.
16CCJk	.
8AA-	.
32r	f
32FFLLL	>
32GG	.
32AA-JJJ	.
=968	=968
!LO:TX:b:i:t=morendo.	!
8BB-L	]
8C	.
8D-J	.
8r	p
=969	=969
!LO:TX:b:t=arco	!
(4e-	.
!LO:TX:b:i:t=cresc.	!
8fL	.
8e-J)	.
=970	=970
4dn	.
4G	.
=971	=971
8C	f
8r	.
8GG	.
8r	.
=972	=972
[8CCL	.
32CCLL]	.
32CC'	.
32EEn'	.
32FF'JJJ	.
[8GGL	.
32GGLL]	.
32GG'	.
32AAn'	.
32BBn'JJJ	.
=973	=973
!!linebreak:original
4C	.
4r	.
*clefG2	*
=974	=974
!LO:TX:b:i:t=sotto voce.	!
(8ffL	.
8aa-	.
8.ccc	.
16ffJk)	.
=975	=975
(8eenL	.
8gg	.
8.ccc	.
16bb-Jk)	.
=976	=976
(16aa-LL	.
16ff	.
16een	.
16ffJJ	.
16eeLL	.
16ff	.
16gg	.
16aa-JJ)	.
=977	=977
(16bb-LL	.
16aa-	.
16gg	.
16ffJJ	.
16eenLL	.
16gg	.
16cc	.
16b-JJ)	.
*clefF4	*
=978	=978
(8A-L	.
8F	.
!	!LO:DY:a
8.E-	sf
!	!LO:DY:a
16GJk)	p
=979	=979
!!linebreak:original
(8B-L	.
8D-	.
!	!LO:DY:a
8.C	p
16E-Jk)	.
=980	=980
(8G-XL	.
8BB-	.
8.AA-	sf
16FJk)	p
=981	=981
[8GG	.
32GGLLL]	.
32BBn	.
32Dn	.
32FJJJ	.
32GLLL	.
32Bn	.
32dn	.
32fJJJ	.
(16f#XLL	.
16gJJ)	.
=982	=982
[8CC	.
32CCLLL]	.
32EEn	.
32GG	.
32BBnJJJ	.
32CLLL	.
32En	.
32G	.
32B-JJJ	.
(16BnLL	.
16cJJ)	.
=983	=983
!!linebreak:original
32r	.
(32FFLLL	.
32F)	.
32FJJJ	.
32r	.
(32BB-LLL	.
32B-)	.
32B-JJJ	.
32r	.
(32EnLLL	.
32en)	.
32eJJJ	.
32r	.
(32FLLL	.
32f)	.
32fJJJ	.
*clefG2	*
=984	=984
(32ffLLL	.
32ggJJJ)	.
32r	.
32gg	.
(32ggLLL	.
32aa-JJJ)	.
32r	.
!LO:TX:b:i:t=cresc.	!
32een	.
(32eeLLL	.
32ff)	.
(32ff	.
32ee-XJJJ)	.
(32ee-LLL	.
32dd-JJJ)	.
16r	.
*clefF4	*
=985	=985
8r	.
16r	.
(32A-LLL	.
32EnJJJ)	.
(32ELLL	.
32F)	.
(32F	.
32DnJJJ)	.
(32DLLL	.
32C)	.
(32C	.
32BB-JJJ)	.
=986	=986
!!linebreak:original
8BBn'	.
8r	sf
8D-'	.
8r	f
=987	=987
16C	p
16r	.
8r	.
4r	.
=988	=988
8r	.
16r	.
16qqCC/LL	.
16qqEE-/JJ	.
32.DD-'LLL	.
64CC'JJJk	.
16CC	.
16qqCC/LL	.
16qqEE-/JJ	.
32.DD-'LLL	.
64CC'JJJk	.
16CC	.
16qqCC/LL	.
16qqEE-/JJ	.
32.DD-'LLL	.
64CC'JJJk	.
=989	=989
16FF	.
16r	.
8r	.
4r	.
=990	=990
16.r	.
32CC	.
32r	.
(64CCLLLL	.
64EE-J)	.
32DD-'	.
32CC'JJJ	.
32r	.
(64CCLLLL	.
64EE-J)	.
32DD-'	.
32CC'JJJ	.
32r	.
(64CCLLLL	.
64EEnJ)	.
32DDn'	.
32CC'JJJ	.
=991	=991
!!linebreak:original
!LO:TX:b:i:t=sempre stacc.	!
32FFLLL	.
32FF	.
32FF	.
32FFJJJ	.
32CCLLL	.
32CC	.
32CC	.
32CCJJJ	.
32GGLLL	.
32GG	.
32GG	.
32GGJJJ	.
32CCLLL	.
32CC	.
32CC	.
32CCJJJ	.
=992	=992
32AA-LLL	.
32AA-	.
32AA-	.
32AA-JJJ	.
32EEnLLL	.
32EE	.
32EE	.
32EEJJJ	.
32FFLLL	.
32FF	.
32FF	.
32FFJJJ	.
32FFLLL	.
32FF	.
32FF	.
32FFJJJ	.
=993	=993
32AA-LLL	.
32AA-	.
32AA-	.
32AA-JJJ	.
32FFLLL	.
32FF	.
32FF	.
32FFJJJ	.
32GGLLL	.
32GG	.
32GG	.
32GGJJJ	.
32GGLLL	.
32GG	.
32FF	.
32FFJJJ	.
=994	=994
!!linebreak:original
32EEnLLL	.
32EE	.
32CC	.
32CCJJJ	.
32FFLLL	.
32FF	.
32AA-	.
32AA-JJJ	.
32CLLL	.
32C	.
32C	.
32CJJJ	.
32CLLL	.
32C	.
32C	.
32CJJJ	.
=995	=995
!	!LO:DY:a
32BB-LLL	<
32BB-	.
32BB-	.
32BB-JJJ	.
32D-LLL	.
32D-	.
32D-	.
32D-JJJ	[
32CLLL	>
32C	.
32C	.
32CJJJ	.
32CLLL	.
32C	.
32AA-	.
32AA-JJJ	]
=996	=996
!LO:TX:b:i:t=cresc.	!
32BB-LLL	.
!LO:TX:a:i:t=cresc.	!
32BB-	.
32BB-	.
32BB-JJJ	.
32D-LLL	.
32D-	.
32D-	.
32D-JJJ	.
32CLLL	.
32C	.
32C	.
32CJJJ	.
32CLLL	.
32C	.
32AA-	.
32AA-JJJ	.
=997	=997
!!linebreak:original
32GGLLL	f
32GG	.
32GG	.
32GGJJJ	.
32CCLLL	.
32CC	.
32CC	.
32CCJJJ	.
32AA-LLL	sf
32AA-	>
32AA-	.
32AA-JJJ	.
32AAnLLL	.
32AA	.
32AA	.
32AAJJJ	]
=998	=998
(8BB-L	p
!LO:TX:b:i:t=dim.	!
8CJ	.
8.D-L	.
16DnJk)	.
=999	=999
(8E-L	.
8FJ	.
8.GL)	.
16GJk	.
=1000	=1000
(8A-L	pp
8AnJ	.
8B-L	.
8BnJ)	.
=1001	=1001
!LO:TX:b:i:t=cresc.	!
(8..cL	.
32d-Jkk)	.
(8d-L	.
8dnJ)	sf
=1002	=1002
!!linebreak:original
8cL	<
(16.cL	.
32d-JJk)	.
(8d-L	[
8dnJ)	.
=1003	=1003
2dn	[
=1004	=1004
2G	p
=1005	=1005
2GG	.
=1006	=1006
8C	.
8r	.
4r	.
=1007	=1007
8r	.
64r	.
64C'LLLL	.
64BBn'	.
64AAn'	.
64GG'	.
64FF'	.
64EEn'	.
64DDn'JJJJ	.
16CC'	.
16r	.
8r	.
=1008	=1008
2r	.
=1009	=1009
8CC	.
8r	.
4r	.
=1010||	=1010||
!!linebreak:original
*k[b-]	*
*F:	*
!LO:TX:a:B:t=Allegro	!
(4D	.
8CL	.
!LO:TX:b:i:t=sempre	!
16DL	.
16EJJ)	.
=1011	=1011
8F'L	.
8F'J	p
8G'L	.
8G'J	.
=1012	=1012
(4A	.
8cL)	.
16c'L	.
16B-'JJ	.
=1013	=1013
(4A	<
8.cL	[
16B-Jk)	>
=1014	=1014
(4A	p
8GL	.
16AL	.
16EJJ)	.
=1015	=1015
8F'L	.
8D'J	.
8C#X'L	.
8AA'J	.
=1016	=1016
8D'L	.
8F'J	.
8E'L	.
8A'J	.
=1017	=1017
*^	*
(4D	4ryy	.
[4Cn)	[[4CTyy	.
=1018	=1018	=1018
2C_	256.C]]	.
.	32Dyy	.
.	32Cyy	.
.	32Dyy	.
.	32Cyy	.
.	32Dyy	.
.	32Cyy	.
.	32Dyy	.
.	32Cyy	.
.	32Dyy	.
.	32Cyy	.
.	32Dyy	.
.	32Cyy	.
.	32Dyy	.
.	32Cyy	.
.	32Dyy	.
.	[[64...Cyy	.
=1019	=1019	=1019
.	1%0C/]]	.
2C_	32Dyy	.
.	32Cyy	.
.	32Dyy	.
.	32Cyy	.
.	32Dyy	.
.	32Cyy	.
.	32Dyy	.
.	32Cyy	.
.	32Dyy	.
.	32Cyy	.
.	32Dyy	.
.	32Cyy	.
.	32Dyy	.
.	32Cyy	.
.	32Dyy	.
.	32Cyy	.
.	[[1%0D\yy	.
=1020	=1020	=1020
[2C	64...D]]	.
.	32Cyy	.
.	32Dyy	.
.	32Cyy	.
.	32Dyy	.
.	32Cyy	.
.	32Dyy	.
.	32Cyy	.
.	32Dyy	.
.	32Cyy	.
.	32Dyy	.
.	32Cyy	.
.	32Dyy	.
.	32Cyy	.
.	32Dyy	.
.	32Cyy	.
.	[[256.Dyy	.
=1021	=1021	=1021
2C]	512%13D]]	.
.	32Cyy	.
.	32Dyy	.
.	32Cyy	.
.	32Dyy	.
.	32Cyy	.
.	32Dyy	.
.	32Cyy	.
.	32Dyy	.
.	32Cyy	.
.	32Dyy	.
.	32Cyy	.
.	32Dyy	.
.	32Cyy	.
.	32Dyy	.
.	32Cyy	.
.	512ryy	.
.	128ryy	.
=1022	=1022	=1022
!!linebreak:original
4CT	768%43Cyy	.
.	32DLLLyy	.
.	32Cyy	.
.	32Dyy	.
.	32Cyy	.
.	32Dyy	.
.	32CJJJyy	.
.	1536ryy	.
.	256.ryy	.
4C#Xt	768%43C#Xyy	.
.	32DLLLyy	.
.	32C#yy	.
.	32Dyy	.
.	32C#yy	.
.	32Dyy	.
.	32C#JJJyy	.
.	1536ryy	.
.	256.ryy	.
=1023	=1023	=1023
4DT	768%43Dyy	.
.	32ELLLyy	.
.	32Dyy	.
.	32Eyy	.
.	32Dyy	.
.	32Eyy	.
.	32DJJJyy	.
.	1536ryy	.
.	256.ryy	.
4Et	768%43Eyy	.
.	32FLLLyy	.
.	32Eyy	.
.	32Fyy	.
.	32Eyy	.
.	32Fyy	.
.	32EJJJyy	.
.	1536ryy	.
.	256.ryy	.
=1024	=1024	=1024
8.FTL	384%19Fyy	.
.	32GLLLyy	.
.	32Fyy	.
.	32Gyy	.
.	32FJJJyy	.
.	768ryy	.
.	128.ryy	.
32ELL	16ryy	.
32DJJJ	.	.
8.C#XtL	384%19C#Xyy	.
.	32DLLLyy	.
.	32C#yy	.
.	32Dyy	.
.	32C#JJJyy	.
.	768ryy	.
.	128.ryy	.
32BBnLL	16ryy	.
32AAJJJ	.	.
*v	*v	*
=1025	=1025
(2BB-X	.
=1026	=1026
!	!LO:DY:a
4AA	<
4GG)	.
=1027	=1027
(16FFLL	f
16AA)	.
(16AA	.
16CJJ)	.
(16EELL	.
16GG)	.
16GG)	.
16CJJ	.
=1028	=1028
(16FFLL	.
16AA)	.
16AA)	.
16CJJ	.
(16CCLL	.
16EE)	.
(16GG	.
16CJJ)	.
=1029	=1029
(16FFLL	.
16AA)	.
(16AA	.
16CJJ)	.
(16EELL	.
16GG)	.
(16GG	.
16CJJ)	.
=1030	=1030
!!linebreak:original
(16FFLL	.
16AA)	.
(16AA	.
16CJJ)	.
(16CCLL	sf
16EE)	.
16GG'	.
16C'JJ	.
=1031	=1031
8FF	ff
4F	.
[8A	.
=1032	=1032
(8AL]	.
8B-J)	.
4r	.
=1033	=1033
8r	.
4G	.
[8B-	.
=1034	=1034
(8B-L]	.
8cJ)	p
4r	.
=1035	=1035
2r	.
=1036	=1036
8r	p
(8DL	<
8E	[
8FJ)	>
=1037	=1037
8r	]
(8DL	<
8E	[
8FJ)	>
=1038	=1038
8r	]
8BB-	.
8r	.
8C	.
=1039	=1039
8r	.
(8dL	<
8c	[
8fJ)	>
=1040	=1040
8r	]
!	!LO:DY:a
(8DD-XL	<
8CC	[
!	!LO:DY:a
8FFJ)	>
=1041	=1041
!!linebreak:original
8r	]
8B-	.
8r	.
8c	.
=1042	=1042
8r	.
8A	.
8r	.
8D	.
=1043	=1043
8r	.
8BB-	.
8r	.
8C	.
=1044	=1044
4FF	ff
(8CL	.
16DL	.
16EJJ)	.
=1045	=1045
8F'L	.
8F'J	.
8G'L	.
8G'J	.
=1046	=1046
8AL	.
8AJ	.
8GL	.
8GJ	.
=1047	=1047
8FL	.
8FJ	.
8CL	.
8CJ	.
=1048	=1048
4AA	.
(8CCL	.
16DDL	.
16EEJJ)	.
=1049	=1049
8FFL	.
8FFJ	.
4r	.
=1050	=1050
4r	.
(8EEL	.
16FF#XL	.
16GG#XJJ)	.
=1051	=1051
!!linebreak:original
8AA'L	.
8AA'J	.
(8DDL	.
16EEL	.
16FF#XJJ)	.
=1052	=1052
(8GGnL	.
16BBnL	sf
16DJJ)	.
4G	.
=1053	=1053
2r	.
=1054	=1054
8r	.
8c	p
!LO:TX:b:i:t=dol.	!
8r	.
8d	.
=1055	=1055
8r	.
8e	.
8r	.
8e	.
=1056	=1056
8r	.
8f	.
8r	.
8e	.
=1057	=1057
8r	.
8d'	.
8r	.
8c'	.
=1058	=1058
8r	.
8Bn	<
8r	.
8A	.
=1059	=1059
8r	.
8G	.
8r	.
8F	.
=1060	=1060
8r	[
8E	>
8r	.
8D	.
=1061	=1061
8r	.
8C	.
8r	]
8GG	.
=1062	=1062
!!linebreak:original
(4E-X	.
4BBn	.
=1063	=1063
4C	.
4D	.
=1064	=1064
4E-X	.
4En	.
=1065	=1065
2F)	.
=1066	=1066
(4F	.
4G	<
=1067	=1067
4A-X	.
4BBn	.
=1068	=1068
4C	.
4D	.
=1069	=1069
!LO:TX:b:i:t=dim.	!
4E-X	[
4D	.
=1070	=1070
4C	.
4BB-)	.
=1071	=1071
[2AA-X	pp
=1072	=1072
2AA-_	.
=1073	=1073
2AA-]	.
=1074	=1074
16GG'LL	ff
16AA'	.
16BBn'	.
16C'JJ	.
16D'LL	.
16E'	.
16F'	.
16G'JJ	.
=1075	=1075
!!linebreak:original
2F	.
=1076	=1076
2D	sf
=1077	=1077
16CLL	.
16BBn	.
16AA	.
16GGJJ	.
16FFLL	.
16EE	.
16DD	.
16CCJJ	.
=1078	=1078
8FF	.
8r	.
8F	.
8r	.
=1079	=1079
8G	.
8r	.
8GG	.
8r	.
=1080	=1080
4r	.
(8BBnL	pp
16CL	.
!LO:TX:b:i:t=poco rit.	!
16DJJ)	.
=1081	=1081
8E-XL	.
8E-J	.
8E-L	.
8E-J	.
=1082	=1082
!LO:TX:a:i:t=a tempo.	!
8.EL	.
!LO:TX:b:i:t=cresc.	!
16G'Jk	.
8.GL	.
16c'Jk	.
=1083	=1083
8.cL	.
16eJk	.
(16eLL	.
16c)	.
16G'	.
16E'JJ	.
=1084	=1084
8.DL	.
16F'Jk	.
8.FL	.
16Bn'Jk	.
=1085	=1085
!!linebreak:original
8.BnL	.
16dJk	.
16dLL	.
16B	.
16F	.
16DJJ	.
=1086	=1086
16CLL	.
!	!LO:DY:a
16cJ	f
[8cJ	.
16cLL]	.
16cJ	.
[8cJ	.
=1087	=1087
16cLL]	.
16cJ	.
[8cJ	.
16cLL]	.
16c	.
16c	.
16cJJ	.
=1088	=1088
16dLL	.
16GJ	.
[8GJ	.
16GLL]	.
16GJ	.
[8GJ	.
=1089	=1089
16GLL]	.
16GJ	.
[8GJ	.
16GLL]	.
16G	.
16G	.
16BnJJ	.
=1090	=1090
16cLL	p
16cJ	.
[8GJ	.
16GLL]	.
16cJ	.
[8AJ	.
=1091	=1091
16ALL]	.
16dJ	.
[8AJ	.
16ALL]	.
16dJ	.
8GJ	.
=1092	=1092
16cLL	.
!LO:TX:a:i:t=cresc.	!
16CJJ	.
[8GG	.
16GG'LL]	.
16CJ	.
[8AAJ	.
=1093	=1093
!!linebreak:original
16AALL]	.
16DJ	.
[8AAJ	.
16AALL]	.
16DJ	.
[8GGJ	.
=1094	=1094
16GGLL]	.
16CJ	.
[8BBnJ	.
16BBLL]	.
16AAJ	.
[8GGJ	.
=1095	=1095
16GGLL]	.
16FFJ	.
[8DDJ	.
16DDLL]	.
16GGJ	.
[8GGJ	.
=1096	=1096
16GGKL]	f
8C	.
[16BBnJk	.
16BBKL]	.
8AA	.
[16GGJk	.
=1097	=1097
16GGKL]	.
8FF	.
[16DDJk	.
16DDKL]	.
8GG	.
16GGJk	.
=1098	=1098
!	!LO:DY:a
16CC	ff
(16CCLL	.
16DD)	.
(16EEJJ	.
16FFLL)	.
(16GG	.
16AA)	.
(16BBnJJ	.
=1099	=1099
16CLL)	.
(16D	.
16E)	.
(16FJJ	.
16GLL)	.
(16A	.
16Bn)	.
(16cJJ	.
=1100	=1100
!!linebreak:original
16dLL)	.
(16E	.
16F)	.
(16E'JJ	.
8F'L)	.
8G'J	.
=1101	=1101
16CLL	.
(16C	.
16BBn)	.
(16DJJ	.
16CLL)	.
(16C	.
16BB)	.
(16DJJ	.
=1102	=1102
16CLL)	.
(16E	.
16D)	.
(16FJJ	.
16ELL)	.
!LO:TX:a:i:t=dim.	!
(16E	.
16D)	.
(16FJJ	.
=1103	=1103
16ELL)	.
(16G	.
16F)	.
(16A-XJJ	.
16GLL)	.
(16c	.
16Bn)	.
(16dJJ	.
=1104	=1104
16cLL)	.
(16e	.
16d)	.
(16fJJ	.
16eLL)	.
(16e	.
16d)	.
(16fJJ	.
=1105	=1105
16eLL)	p
!LO:TX:b:i:t=dim.	!
16c	.
16c	.
16cJJ	.
16cLL	.
16c	.
16c	.
16cJJ	.
=1106	=1106
16cLL	.
16c	.
16c	.
16cJJ	.
16cLL	.
16c	.
16c	.
16cJJ	.
=1107	=1107
8c	pp
8r	.
4r	.
=1108	=1108
2r	.
=1109:|!	=1109:|!
!!linebreak:original
(4FF#X	p
8EEL	.
16FF#L	.
16GGJJ)	.
=1110	=1110
8AA'L	.
8AA'J	.
8GG'L	.
8GG'J	.
=1111	=1111
!LO:TX:b:i:t=cresc.	!
8FF#XL	.
8FF#J	.
(8GGL	.
16AAL	.
16BB-JJ)	.
=1112	=1112
8CL	.
8CJ	.
8BB-L	.
8BB-J	.
=1113	=1113
8AAL	.
8AAJ	.
(8BB-L	.
16CL	.
16DJJ)	.
=1114	=1114
8E-XL	f
8DJ	>
(8CL	.
16BB-L	.
16AAJJ)	]
=1115	=1115
(16GGLL	p
16BB-)	.
(16BB-	.
16DJJ)	.
(16FF#XLL	.
16AA)	.
(16AA	.
16DJJ)	.
=1116	=1116
(16GGLL	.
16BB-)	.
(16BB-	.
16DJJ)	.
(16FF#XLL	.
16AA)	.
(16AA	.
16DJJ)	.
=1117	=1117
!!linebreak:original
(16GGLL	.
16BB-)	.
(16BB-	.
16DJJ)	.
(16FF#XLL	.
16AA)	.
(16AA	.
16DJJ)	.
=1118	=1118
(16GGLL	.
16BB-)	.
(16BB-	.
16DJJ)	.
(16FF#XLL	.
16AA)	.
(16AA	.
16DJJ)	.
=1119	=1119
4GG	.
4r	.
=1120	=1120
2r	.
=1121	=1121
4r	.
8r	.
16E-X'LL	pp
16D-X'JJ	.
=1122	=1122
(16D-XLL	.
16C)	.
16C'	.
16BB-'JJ	.
(16BB-LL	.
16AA-X)	.
16AA-'	.
16GG'JJ	.
=1123	=1123
(4AA-X	.
8E-X'L)	.
16E-'L	.
16D-X'JJ	.
=1124	=1124
(4C	.
4GG)	.
=1125	=1125
!!linebreak:original
8.AA-XL	.
(16EE-XJk	.
8.E-XL	.
16D-XJk)	>
=1126	=1126
(4C	]
4GG)	p
=1127	=1127
!LO:TX:b:i:t=cresc.	!
(16AA-XLL	.
16E-X)	.
16E-'	.
16D-X'JJ	.
(16D-LL	.
16C)	.
16C'	.
16BB-'JJ	.
=1128	=1128
(16BB-LL	.
16AA)	.
16AA'	.
16GG-X'JJ	.
(16GG-LL	.
16FF)	.
16AA'	.
16C'JJ	.
=1129	=1129
(16CLL	.
16BB-)	.
16BB-'	.
16E-X'JJ	.
(16E-LL	.
16D-X)	.
16D-'	.
16C'JJ	.
=1130	=1130
(16CLL	.
16BBn)	.
16BB'	.
16AA-X'JJ	.
(16AA-LL	.
16GG)	.
16BB'	.
16D'JJ	.
=1131	=1131
!!linebreak:original
(16DLL	.
16C)	.
16C'	.
16F'JJ	.
(16FLL	.
16En)	.
16E'	.
16Dn'JJ	.
=1132	=1132
(16DLL	f
16C#X)	.
16C#'	.
16AA'JJ	.
(16AALL	.
16D)	.
16DD'	.
16EE'JJ	.
=1133	=1133
(16EELL	.
16FF)	.
16FF'	.
16FF#X'JJ	.
(16FF#LL	.
16GG)	.
16GG'	.
16AA'JJ	.
=1134	=1134
(16AALL	.
16BB-)	.
16BB-'	.
16AA'JJ	.
(16AALL	.
16BB-)	.
16BB-'	.
16AA'JJ	.
=1135	=1135
(16AALL	.
16BB-)	.
16BB-'	.
16AA'JJ	.
(16AALL	.
16BB-)	.
16BB-'	.
16AA'JJ	.
=1136	=1136
(16BB-LL	sf
16AA)	.
16AA'	.
16BB-'JJ	.
(16BB-LL	sf
16AA)	.
16AA'	.
16BB-'JJ	.
=1137	=1137
!!linebreak:original
(16BB-LL	sf
16AA)	.
16AA'	.
16BB-'JJ	.
(16BB-LL	sf
16AA)	.
16AA'	.
16BB-'JJ	.
=1138	=1138
(16AALL	ff
16GG#X)	.
16GG#'	>
16AA'JJ	.
(16AALL	.
16GG#)	.
16GG#'	.
16AA'JJ	.
=1139	=1139
(16AALL	.
16GG#X)	.
16GG#'	.
16AA'JJ	.
(16AALL	.
16GG#)	.
16GG#'	.
16AA'JJ	]
=1140	=1140
(16AALL	p
16GG#X)	.
16GG#'	.
16AA'JJ	.
(16AALL	.
16GG#)	.
16GG#'	.
16AA'JJ	.
=1141	=1141
(16AALL	.
16GG#X)	.
16GG#'	.
16AA'JJ	.
(16AALL	.
16GG#)	.
16GG#'	.
16AA'JJ	.
=1142	=1142
(16AALL	.
16GG#X)	.
16GG#'	.
16AA'JJ	.
(16AALL	.
16GG#)	.
16GG#'	.
16AA'JJ	.
=1143	=1143
!!linebreak:original
(16AALL	.
16GG#X)	.
16GG#'	.
16AA'JJ	.
(16AALL	.
16GG#)	.
16GG#'	.
16AA'JJ	.
=1144	=1144
(16BB-LL	.
16AA)	.
16BB-'	.
16BB-'JJ	.
(16BB-LL	.
16AA)	.
16BB-'	.
16BB-'JJ	.
=1145	=1145
(16BB-LL	.
16AA)	.
16BB-'	.
16BB-'JJ	.
(16BB-LL	.
16AA)	.
16BB-'	.
16BB-'JJ	.
=1146	=1146
(16BB-LL	.
16AA)	.
16BB-'	.
16BB-'JJ	.
(16BB-LL	.
16AA)	.
16BB-'	.
16BB-'JJ	.
=1147	=1147
(16BB-LL	.
16AA)	.
16BB-'	.
16BB-'JJ	.
(16BB-LL	.
16AA)	.
16AA'	.
16BBn'JJ	.
=1148	=1148
!LO:TX:b:i:t=cresc.	!
(16CLL	.
16BBn)	.
16BB'	.
16C'JJ	.
(16CLL	.
16BB)	.
16BB'	.
16C'JJ	.
=1149	=1149
!!linebreak:original
(16CLL	.
16BBn)	.
16BB'	.
16C'JJ	.
16CLL	.
16C	.
16C	.
16CJJ	.
=1150	=1150
16C#X'LL	.
!	!LO:DY:a
16A'J	f
[8AJ	.
16ALL]	.
16AJ	.
[8AJ	.
=1151	=1151
16ALL]	.
16AJ	.
[8AJ	.
16ALL]	.
16A	.
16A	.
16AJJ	.
=1152	=1152
16DLL	.
16dJ	.
[8dJ	.
16dLL]	.
16dJ	.
[8dJ	.
=1153	=1153
16dLL]	.
16dJ	.
[8dJ	.
16dLL]	.
16d	.
16d	.
16dJJ	.
=1154	=1154
16GLL	.
16GGJ	.
[8GGJ	.
16GGLL]	.
16GGJ	.
[8GGJ	.
=1155	=1155
16GGLL]	.
16AAJ	.
[8AAJ	.
16AALL]	.
16E	.
16E	.
16EJJ	.
=1156	=1156
8.EL	.
16GJk	.
8.GL	.
16c#XJk	.
=1157	=1157
!!linebreak:original
8.c#XL	.
16eJk	.
16gLL	.
16e	.
16A'	.
16E'JJ	.
=1158	=1158
8.DL	.
16F'Jk	.
8.FL	.
16A'Jk	.
=1159	=1159
8.AL	.
16d'Jk	.
(16dLL	.
16A)	.
16F'	.
16D'JJ	.
=1160	=1160
8.GL	.
16GJk	.
8.GL	.
16GJk	.
=1161	=1161
8.AL	.
16AAJk	.
8.AAL	.
16AAJk	.
=1162	=1162
8.DL	.
16CJk	.
8.BB-L	.
16AAJk	.
=1163	=1163
8.GGL	.
16GGJk	.
8.AAL	.
16AAJk	.
=1164	=1164
16D'KL	.
8.CJ	sf
16BB-KL	.
8.AAJ	.
=1165	=1165
16GGKL	.
8.GGJ	.
16AAKL	.
8.AAJ	.
=1166	=1166
!!linebreak:original
16dLL	ff
(16A	.
16B-)	.
(16GJJ	.
16ALL)	.
(16F	.
16G)	.
(16EJJ	.
=1167	=1167
16FLL)	.
(16D	.
16E)	.
(16C#XJJ	.
16DLL)	.
(16DD	.
16CC#X)	.
(16EEJJ	.
=1168	=1168
16DDLL)	.
(16FF	.
16EE)	.
(16GGJJ	.
16FFLL)	.
(16D	.
16C#X)	.
(16EJJ	.
=1169	=1169
16DLL)	.
(16F	.
16E)	.
(16GJJ	.
16FLL)	.
16D	.
16D	.
16DJJ	.
=1170	=1170
!LO:TX:a:i:t=dim.	!
2D	.
=1171	=1171
4D	.
16DLL	.
16DD	.
16DD	.
16DDJJ	.
=1172	=1172
(16DDLL	.
!	!LO:DY:a
16CC#X	p
!LO:TX:a:i:t=dim.	!
16EE	.
16CC#JJ	.
16DDLL	.
16CC#	.
16EE	.
16CC#JJ	.
=1173	=1173
!!linebreak:original
16DDLL	.
16CC#X	.
16EE	.
16CC#JJ	.
16DDLL	.
16CC#	.
16EE	.
16CC#JJ)	.
=1174	=1174
8.DDL	pp
16C#X'Jk	.
8.DL	.
16AA'Jk	.
=1175	=1175
8.DL	.
16C#X'Jk	.
8.DL	.
16AA'Jk	.
=1176	=1176
8D	.
8r	.
4r	.
=1177	=1177
4r	.
(16qqCn/	.
8BBnL	.
16AAL	>
16GGJJ)	.
=1178	=1178
8.CL	pp
16BBn'Jk	.
8.CL	.
16GG'Jk	.
=1179	=1179
8.CL	.
16BBn'Jk	.
8.CL	.
16GG'Jk	.
=1180	=1180
4C	.
4r	.
=1181	=1181
!!linebreak:original
4r	.
16qqBB-X/	>
(8AAL	.
16GGL	.
16FFJJ)	.
=1182	=1182
8.BB-L	pp
16AAJk	.
8.BB-L	.
16FFJk	.
=1183	=1183
8.BB-L	.
16AAJk	.
8.BB-L	.
16FFJk	.
=1184	=1184
8.BB-L	<
16FFJk	.
8.BB-L	.
16FFJk	.
=1185	=1185
8.BB-L	>
16FFJk	.
8.BB-L	.
16FFJk	.
=1186	=1186
[2BB-	]
=1187	=1187
!LO:TX:b:i:t=dim.	!
2BB-_	p
=1188	=1188
(4BB-]	pp
8E-XL	.
16DL	.
16CJJ)	.
=1189	=1189
(4.BB-	.
16AALL	.
16GGJJ)	.
=1190	=1190
!!linebreak:original
(8FFL	.
16EEL	.
16DDJJ	.
8CCL	.
16DDL	.
16EEJJ	.
=1191	=1191
8FFL	.
16EEL	.
16FFJJ	.
8GGL	.
16FFL	.
16GGJJ	.
=1192	=1192
8AAL	.
16GGL	.
16AAJJ	.
8BBnL	.
16D-XL	.
16AAJJ	.
=1193	=1193
8DL	.
16EL	.
16FJJ	.
8GL	.
16AL	.
16GJJ	.
=1194	=1194
8FL	.
16EL	.
16DJJ	.
8GL	.
8AJ)	.
=1195	=1195
2B-	.
=1196	=1196
!LO:TX:b:i:t=cresc.	!
(16B-LL	f
16d)	.
16B-'	.
16d'JJ	.
(16B-LL	.
16c)	.
16B-'	.
16c'JJ	.
=1197	=1197
!!linebreak:original
(8AL	.
16GL	.
16FJJ	.
16ELL	.
16D	.
16C	.
16BB-JJ)	.
=1198	=1198
(8AAL	.
16GGL	.
16FFJJ	.
16EELL	.
16DD	.
16EE	.
16CCJJ)	.
=1199	=1199
(16FFLL	ff
16AA)	.
(16AA	.
16CJJ)	.
(16EELL	.
16GG)	.
(16GG	.
16CJJ)	.
=1200	=1200
(16FFLL	.
16AA)	.
(16AA	.
16CJJ)	.
(16CCLL	.
16EE)	.
(16EE	.
16GGJJ)	.
=1201	=1201
(16FFLL	.
16AA)	.
(16AA	.
16CJJ)	.
(16EELL	.
16GG)	.
(16GG	.
16CJJ)	.
=1202	=1202
(16FFLL	.
16AA)	.
(16AA	.
16CJJ)	.
(16AALL	.
16C)	.
(16C	.
16FJJ)	.
=1203	=1203
!!linebreak:original
(16BB-LL	.
16D)	.
(16D	.
16FJJ)	.
4r	.
=1204	=1204
(16GGLL	.
16BB-)	.
(16BB-	.
16DJJ)	.
(16GGLL	.
16BBn)	.
(16BB	.
16DJJ)	.
=1205	=1205
(16CCLL	.
16GG)	.
(16GG	.
16CJJ)	.
4r	.
=1206	=1206
8r	.
(16CLL	p
16EJJ	.
16CLL	.
16E	.
16D	.
16FJJ)	.
=1207	=1207
(16DLL	<
16F	.
16D	.
16FJJ	[
!	!LO:DY:a
16ELL	>
16G	.
16F	.
16AJJ)	]
=1208	=1208
2r	]
=1209	=1209
8r	.
8BB-	p
8r	.
8C	.
=1210	=1210
2r	.
=1211	=1211
!!linebreak:original
!	!LO:DY:a
8r	<
16DD-XLL	.
16FFJJ	.
!	!LO:DY:a
16CCLL	>
16EE	.
16FF	.
16AA-XJJ	]
=1212	=1212
8r	p
8BB-	.
!LO:TX:b:i:t=cresc.	!
8r	.
8C	.
=1213	=1213
8r	.
(16FLL	.
16A-XJJ)	.
8r	.
(16D-XLL	.
16FJJ)	.
=1214	=1214
8r	.
(16BB-LL	.
16D-XJJ)	.
8r	.
(16CCLL	.
16CJJ)	.
=1215	=1215
(4FF	ff
8CL	.
16DnL	.
16EJJ)	.
=1216	=1216
8F'L	.
8F'J	.
8G'L	.
8G'J	.
=1217	=1217
8A-XL	.
8A-J	.
8GL	.
8GJ	.
=1218	=1218
8FL	.
8FJ	.
8CL	.
8CJ	.
=1219	=1219
(4AA-X	sf
8CCL	.
16DDL	.
16EEJJ)	.
=1220	=1220
!!linebreak:original
8FFL	.
8FFJ	.
4r	.
=1221	=1221
4r	.
(8EE-XL	.
16FFL	.
16GGJJ)	.
=1222	=1222
8AA-XL	.
8AA-J	.
(8DDL	.
16EEL	.
16FF#XJJ)	.
=1223	=1223
(8GGL	.
16BBnL	.
16DJJ	.
8G)	.
8r	.
=1224	=1224
2r	sf
=1225	=1225
(8CCL	sf
16EEL	.
16GGJJ)	.
4C	.
*clefG2	*
=1226	=1226
(8ccL	.
8eeJ	>
8ggL	.
8bb-J)	.
=1227	=1227
(4aa	p
4ee	.
=1228	=1228
4ff	.
4ff#X	.
=1229	=1229
4gg	.
4aa	.
=1230	=1230
2bb-)	.
=1231	=1231
(4bb-	<
4ccc	.
=1232	=1232
!!linebreak:original
4ddd)	<
4ee	.
=1233	=1233
4ff	>
4gg	.
=1234	=1234
4aa	.
4gg	.
=1235	=1235
2r	]
*clefF4	*
=1236	=1236
4AA-X	.
4EE-X	.
=1237	=1237
4FF	.
4GG-X	.
=1238	=1238
4GG	.
4AA-X	.
=1239	=1239
!	!LO:DY:a
2BB-	<
=1240	=1240
4BB-	<
4C	.
=1241	=1241
4D-X	.
4EE	.
=1242	=1242
4FF	>
4EE-X	]
=1243	=1243
!	!LO:DY:a
[2DD-X	pp
=1244	=1244
2DD-_	.
=1245	=1245
2DD-]	.
=1246	=1246
!	!LO:DY:a
16CC'LL	ff
16DD'	.
16EE'	.
16FF'JJ	.
16GG'LL	.
16AA'	.
16BB-'	.
16C'JJ	.
=1247	=1247
!!linebreak:original
2BB-	.
=1248	=1248
2GG	.
=1249	=1249
16FLL	.
16E	.
16D	.
16CJJ	.
16BB-LL	.
16AA	.
16GG	.
16FFJJ	.
=1250	=1250
8BB-	.
8r	.
8BB-	.
8r	.
=1251	=1251
8C	.
8r	.
8CC	.
8r	.
=1252	=1252
!	!LO:DY:a
4r	pp
(8EEL	.
!LO:TX:a:i:t=poco rit.	!
16FFL	.
16GGJJ)	.
=1253	=1253
8AA-XL	.
8AA-J	.
8AA-L	.
8AA-J	.
=1254	=1254
!LO:TX:a:i:t=a tempo.	!
8.AAL	.
!LO:TX:b:i:t=cresc.	!
16A'Jk	.
8.AL	.
16c'Jk	.
=1255	=1255
8.cL	.
16f'Jk	.
(16fLL	.
16c)	.
16A'	.
16F'JJ	.
=1256	=1256
8.GL	.
16B-'Jk	.
8.B-L	.
16e'Jk	.
=1257	=1257
!!linebreak:original
8.eL	.
16gJk	.
(16gLL	.
16e)	.
16B-'	.
16G'JJ	.
=1258	=1258
16FLL	f
16fJ	.
[8fJ	.
16fLL]	.
16fJ	.
[8fJ	.
=1259	=1259
16fLL]	.
16fJ	.
[8fJ	.
16fLL]	.
16f'	.
16f	.
16fJJ	.
=1260	=1260
16gLL	.
16cJ	.
[8cJ	.
16cLL]	.
16cJ	.
[8cJ	.
=1261	=1261
16cLL]	.
16cJ	.
[8cJ	.
16cLL]	.
16c	.
16c	.
16cJJ	.
=1262	=1262
16fLL	p
16fJ	.
[8cJ	.
16cLL]	.
16fJ	.
[8dJ	.
=1263	=1263
16dLL]	.
16gJ	.
[8dJ	.
16dLL]	.
16gJ	.
8cJ	.
=1264	=1264
!LO:TX:b:i:t=cresc.	!
16fLL	.
16FJ	.
[8CJ	.
16CLL]	.
16FJ	.
[8DJ	.
=1265	=1265
16DLL]	.
16GJ	.
[8DJ	.
16DLL]	.
16GJ	.
[8CJ	.
=1266	=1266
!!linebreak:original
16CLL]	.
16FJ	.
[8EJ	.
16ELL]	.
16DJ	.
[8CJ	.
=1267	=1267
16CLL]	.
16BB-J	.
[8GGJ	.
16GGLL]	.
16CJ	.
[8CCJ	.
=1268	=1268
16CCKL]	.
8FF	f
8EE	.
8DD	.
[16CCJk	.
=1269	=1269
16CCKL]	.
8BB-	.
[16GGJk	.
16GGKL]	.
8C	.
16CCJk	.
=1270	=1270
8.DDL	ff
16DDJk	.
8.DDL	.
16DDJk	.
=1271	=1271
16DDLL	.
16DD	.
16DD	.
16DDJJ	.
16DDLL	.
16DD	.
16DD	.
16DDJJ	.
=1272	=1272
2DD;	.
=1273	=1273
8.CCL	ff
16CCJk	.
8.CCL	.
16CCJk	.
=1274	=1274
16CCLL	.
16CC	.
16CC	.
16CCJJ	.
16CCLL	.
16CC	.
16CC	.
16CCJJ	.
=1275	=1275
4CC;	.
4r	.
=1276	=1276
2r	.
=1277	=1277
2r	.
=1278	=1278
2r	.
=1279	=1279
2r	pp
=1280	=1280
2r	.
=1281	=1281
2r	pp
=1282	=1282
!!linebreak:original
4r	.
(8BB-L	pp
16CL	.
16GGJJ)	.
=1283	=1283
8AA'L	.
8FF'J	.
8EE'L	.
8CC'J	.
=1284	=1284
(8FFL	.
8AAJ)	.
(8CCL	.
16DDL	.
16EEJJ)	.
=1285	=1285
8FF'L	.
8FF'J	.
8GG'L	.
8GG'J	.
=1286	=1286
(4AA-X	.
8BB-L	.
16CL	.
16GGJJ)	.
=1287	=1287
8AA-X'L	.
8FF'J	.
8EE-X'L	.
8EE-'J	.
=1288	=1288
8AA-XL	.
8AA-J	.
8FFL	.
8FFJ	.
=1289	=1289
8BB-L	.
8BB-J	.
(8FFL	.
16GGL	.
16DDJJ)	.
=1290	=1290
8EE	.
[4.CC	.
=1291	=1291
2CC_	.
=1292	=1292
!!linebreak:original
2CC_	.
=1293	=1293
8CCL]	.
8CJ	.
8r	.
8C	.
=1294	=1294
8r	.
8C	.
8r	.
8C	.
=1295	=1295
!LO:TX:b:i:t=cresc.	!
8C'L	.
16r	.
16C'Jk	.
8C'L	.
16r	.
16C'Jk	.
=1296	=1296
8C'L	.
16r	.
16C'Jk	.
8C'L	.
16r	.
16C'Jk	.
=1297	=1297
8C'L	.
16r	.
16C'Jk	.
8C'L	.
16r	.
16C'Jk	.
=1298	=1298
8C'L	.
16r	.
16C'Jk	.
8C'L	.
16r	.
16C'Jk	.
=1299	=1299
8CL 8G	.
16r	.
16CJk 16G	.
8CL 8G	.
16r	.
16CJk 16G	.
=1300	=1300
8CL 8G	.
16r	.
16CJk 16G	.
8CL 8G	.
16r	.
16CJk 16G	.
=1301	=1301
!!linebreak:original
8CL 8A	.
16r	.
16CJk 16A	.
8CL 8A	.
16r	.
16CJk 16A	.
=1302	=1302
8CL 8A	.
16r	.
16CJk 16A	.
8CL 8A	.
16r	.
16CJk 16A	.
=1303	=1303
16CC'LL	.
(16C	f
16D)	.
(16BBnJJ	.
16C)	.
16r	.
8r	.
=1304	=1304
16r	.
(16GLL	.
16A)	.
(16F#XJJ	.
16G)	.
16r	.
8r	.
=1305	=1305
*^	*
[2CT	512%67Cyy	ff
*	*^	*
.	.	512%67C/yy	.
.	32Dyy	.	.
.	.	32D\yy	.
.	32Cyy	.	.
.	.	32C/yy	.
.	32Dyy	.	.
.	.	32D\yy	.
.	32Cyy	.	.
.	.	32C/yy	.
.	32Dyy	.	.
.	.	32D\yy	.
.	32Cyy	.	.
.	.	32C/yy	.
.	32Dyy	.	.
.	.	32D\yy	.
.	32Cyy	.	.
.	.	32C/yy	.
.	32Dyy	.	.
.	.	32D\yy	.
.	32Cyy	.	.
.	.	32C/yy	.
.	32Dyy	.	.
.	.	32D\yy	.
.	[1536%43Cyy	.	.
.	.	[1536%43C/yy	.
*	*v	*v	*
=1306	=1306	=1306
.	1%0C/yy	.
2C]	32Dyy	.
*	*^	*
.	.	1%0C/yy	.
.	.	32D\yy	.
.	32Cyy	.	.
.	.	32C/yy	.
.	32Dyy	.	.
.	.	32D\yy	.
.	32Cyy	.	.
.	.	32C/yy	.
.	32Dyy	.	.
.	.	32D\yy	.
.	32Cyy	.	.
.	.	32C/yy	.
.	32Dyy	.	.
.	.	32D\yy	.
.	32Cyy	.	.
.	.	32C/yy	.
.	32Dyy	.	.
.	.	32D\yy	.
.	32Cyy	.	.
.	.	32C/yy	.
.	32Dyy	.	.
.	.	32D\yy	.
.	32Cyy	.	.
.	.	32C/yy	.
.	32Dyy	.	.
.	.	32D\yy	.
.	32Cyy	.	.
.	.	32C/yy	.
.	32Dyy	.	.
.	.	32D\yy	.
.	32Cyy	.	.
.	.	32C/yy	.
.	768ryy	.	.
.	.	768ryy	.
*v	*v	*v	*
=1307	=1307
(8FFL	.
16GGL	ff
16AAJJ)	.
(8BB-L	.
16CL	.
16DJJ)	.
=1308	=1308
8EL	.
16FL	.
16GJJ	.
8AL	.
16B-L	.
16cJJ	.
=1309	=1309
4d-X	.
[4c	sf
=1310	=1310
2c]	p
=1311	=1311
!!linebreak:original
4F	sf
4D	sf
=1312	=1312
4C	sf
4AA	sf
=1313	=1313
!LO:TX:a:i:t=sempre	!
4GG	.
8EEL	.
!	!LO:DY:a
16FFL	f
16GGJJ	.
=1314	=1314
8FFL	.
16EEL	.
16DDJJ	.
8CCL	.
16DDL	.
16EEJJ	.
=1315	=1315
8FFL	.
16GGL	.
16AAJJ	.
8BB-L	sf
16AAL	.
16GGJJ	.
=1316	=1316
8FFL	sf
16EEL	.
16DDJJ	.
8CCL	sf
16DDL	.
16EEJJ	.
=1317	=1317
(8FFL	.
16GGL	.
16AAJJ)	.
(8BB-L	.
16AAL	.
16GGJJ)	.
=1318	=1318
(8FFL	.
16GGL	.
16AAJJ)	.
8BB-'L	.
8AA'J	.
=1319	=1319
!!linebreak:original
!LO:TX:a:t=Adagio ma non troppo.	!
2BB-	ff
=1320	=1320
[2F	]
=1321	=1321
8FL]	.
(16fL	.
16dJJ	.
8BnL	.
8B-XJ	.
=1322	=1322
4A	.
4G	.
=1323	=1323
4A	.
4G	.
=1324	=1324
4F	.
!LO:TX:b:i:t=sempre e perendosi.	!
4C	.
=1325	=1325
4F	.
4C	.
=1326	=1326
4FF)	.
(8.CL	ppp
16BB-Jk)	.
=1327	=1327
[8AAL	.
16AAJk]	.
16r	.
[8CL	.
16CJk]	.
16r	.
=1328	=1328
[8FL	.
16FJk]	.
16r	.
[8EL	.
16EJk]	.
16r	.
=1329	=1329
!!linebreak:original
!LO:TX:a:t=Presto	!
8FFL	ff
16AAL	.
16GGJJ	.
8FFL	.
16AAL	.
16GGJJ	.
=1330	=1330
8FFL	.
16AAL	.
16GGJJ	.
8FFL	.
16AAL	.
16GGJJ	.
=1331	=1331
8FFL	.
16AAL	.
16GGJJ	.
8FFL	.
16AAL	.
16GGJJ	.
=1332	=1332
8FFL	.
16AAL	.
16GGJJ	.
8FFL	.
16AAL	.
16GGJJ	.
=1333	=1333
8FF	.
8r	.
8C	.
8r	.
=1334	=1334
8F	.
8r	.
8E	.
8r	.
=1335	=1335
4FF	.
8.r	.
16F	.
=1336	=1336
4F	.
8.r	.
16FF	.
=1337	=1337
4FF	.
4r	.
==	==
*-	*-
